!!!!SEGMENT: pl-kk--kk-i-1--048-003_szadek-tomasz--officium-dies-est-laetitiae-patrem.krn
!!!cenid: 15xx:763
!!!COM: Szadek, Tomasz
!!!COM-rismID: pe30020506
!!!CDT: ~1550-1612
!!!CNT: Polish
!!!OPR: Officium Dies est laetitiae
!!!OTL: Patrem
!!!OMV: 003
!!!PDT:
!!!AGN:
!!!SMS-siglum: PL-Kk
!!!SMS-shelfmark: Kk.I.1
!!!SMS-shelfwork: 048-003 M
!!!SMS-variant:
!!!SMS-altvar:
!!!NIFC-rismSourceID: 300258002
!!!NIFC-islandoraID: pl-kk:1
!!!URL-pdf-islandora: https://repozytorium.nifc.pl/islandora/object/pl-kk%3A1/datastream/PDF/view
!!!URL-scan: https://polish.musicsources.pl/pl/lokalizacje/galeria/rekopisy/5736 @EN{Scan on Polish Music Herritage in Open Access Website} @PL{Skany w portalu Dziedzictwo Muzyki Polskiej w otwartym dostępie}
!!!ONB-nifc: UWAGA: Cantus (s. 145v-152r, skan 0148-0154), Altus (s. 140v-147r, skan 0334-0340), Tenor (s. 119v-126v, skan 0510-0517), Bassus (s. 132v-139r, skan 0695-0701). Części Mszy: 1. Kyrie, 2. Et in terra, 3. Patrem, 4. Sanctus
!!!AIN: 1 alto 1 bass 1 soprn 1 tenor
!!!key: F:lyd
**kern	**text	**mod-text	**kern	**text	**mod-text	**kern	**text	**mod-text	**kern	**text	**mod-text
*part4	*part4	*part4	*part3	*part3	*part3	*part2	*part2	*part2	*part1	*part1	*part1
*staff4	*staff4	*staff4	*staff3	*staff3	*staff3	*staff2	*staff2	*staff2	*staff1	*staff1	*staff1
*I"BASSVS	*	*	*I"TENOR	*	*	*I"ALTVS	*	*	*I"CANTVS	*	*
*mI"Basso	*	*	*mI"Tenore II	*	*	*mI"Tenore I	*	*	*mI"Alto	*	*
*I'B	*	*	*I'T	*	*	*I'A	*	*	*I'S	*	*
*	*	*	*mI'T 2	*	*	*mI'T 1	*	*	*mI'A	*	*
*Ibass	*	*	*Itenor	*	*	*Ialto	*	*	*Isoprn	*	*
*ICvox	*	*	*ICvox	*	*	*ICvox	*	*	*ICvox	*	*
*clefF4	*	*	*clefC4	*	*	*clefC4	*	*	*clefC3	*	*
*	*	*	*mclefGv2	*	*	*mclefGv2	*	*	*mclefGv2	*	*
*k[b-]	*	*	*k[b-]	*	*	*k[b-]	*	*	*k[b-]	*	*
*F:lyd	*	*	*F:lyd	*	*	*F:lyd	*	*	*F:lyd	*	*
!LO:MO:mod=!LO&colon;TS&colon;brack	!	!	!LO:MO:mod=!LO&colon;TS&colon;brack	!	!	!LO:MO:mod=!LO&colon;TS&colon;brack	!	!	!LO:MO:mod=!LO&colon;TS&colon;brack	!	!
!null	!	!	!null	!	!	!null	!	!	!null	!	!
*M2/1	*	*	*M2/1	*	*	*M2/1	*	*	*M2/1	*	*
*met()	*	*	*met()	*	*	*met()	*	*	*met()	*	*
*mmet(c|)	*	*	*mmet(c|)	*	*	*mmet(c|)	*	*	*mmet(c|)	*	*
=1-	=1-	=1-	=1-	=1-	=1-	=1-	=1-	=1-	=1-	=1-	=1-
1r	.	.	0r	.	.	1r	.	.	1F	Pa-	Pa-
1FF	Pa-	Pa-	.	.	.	1F	Pa-	Pa-	1A	-trem	-trem
=2-	=2-	=2-	=2-	=2-	=2-	=2-	=2-	=2-	=2-	=2-	=2-
2.FF/	-trem	-trem	1F	PA-	Pa-	2.A\	-trem	-trem	2.c/	.	om-
4GG/	o(m-	om-	.	.	.	4B-\	.	.	4B-/	.	.
2AA/	-n)i-	-ni-	1F	-trem	-trem	2c\	.	.	4A/	om-	-ni-
.	.	.	.	.	.	.	.	.	4G/	-ni-	.
2BB-/	-po-	-po-	.	.	.	1d	om-	om-	1F	-po-	-po-
=3-	=3-	=3-	=3-	=3-	=3-	=3-	=3-	=3-	=3-	=3-	=3-
1GG	-ten-	-ten-	1G	om-	om-	.	.	.	.	.	.
.	.	.	.	.	.	4c\	.	-ni-	2E/	-ten-	-ten-
.	.	.	.	.	.	4B-\	-ni-	.	.	.	.
1FF	-tem	-tem	1A	-ni-	-ni-	4A/	.	-po-	2F/	-tem	-tem
.	.	.	.	.	.	4G/	-po-	.	.	.	.
.	.	.	.	.	.	4F/	.	.	2c/	om-	om-
*	*	*	*	*	*	*custos:D	*	*	*	*	*
.	.	.	.	.	.	4E/	.	.	.	.	.
!	!	!	!	!	!	!LO:LB:g=original	!	!	!	!	!
=4-	=4-	=4-	=4-	=4-	=4-	=4-	=4-	=4-	=4-	=4-	=4-
2.BB-/	.	[Pa-	1B-	-po-	-po-	4D/	.	.	2d\	-ni-	-ni-
.	.	.	.	.	.	4C/	.	.	.	.	.
.	.	.	.	.	.	1F	.	.	2d\	-po-	-po-
4BB-/	.	-trem	.	.	.	.	.	.	.	.	.
1C	.	om-	1G	-ten-	-ten-	.	.	.	2.c/	-ten-	-ten-
.	.	.	.	.	.	2E/	-ten-	-ten-	.	.	.
.	.	.	.	.	.	.	.	.	4B-/	-te(m)	.
=5-	=5-	=5-	=5-	=5-	=5-	=5-	=5-	=5-	=5-	=5-	=5-
1D	.	-ni-	1F	-tem	-tem	2F/	-tem	-tem	4A/	.	.
.	.	.	.	.	.	.	.	.	4G/	.	.
*	*	*	*	*	*	*	*	*	*custos:B-	*	*
.	.	.	.	.	.	2A/	o(m-	om-	2F/	.	-tem
!	!	!	!	!	!	!	!	!	!LO:LB:g=original	!	!
*	*	*	*	*	*	*	*	*	*	*ij	*ij
!LO:SIC:s=1E-i	!	!	!	!	!	!	!	!	!	!	!
1E	.	-po-	2r	.	.	2G/	-n)i-	-ni-	2.B-/	om-	om-
.	.	.	1G	fac-	fac-	2G/	-po-	-po-	.	.	.
.	.	.	.	.	.	.	.	.	4B-/	-ni-	-ni-
=6-	=6-	=6-	=6-	=6-	=6-	=6-	=6-	=6-	=6-	=6-	=6-
!	!	!	!	!	!	!LO:SIC:s=1E-i	!	!	!	!	!
1C	.	-ten	.	.	.	1E	-ten-	-ten-	1c	-po-	-po-
.	.	.	2G/	-to-	-to-	.	.	.	.	.	.
2BB-/	.	-tem]	2D/	-rem	-rem	1F	-tem	-tem	4d\	-ten-	-ten-
.	.	.	.	.	.	.	.	.	4c/	.	.
2BB-/	om-	om-	2D/	cae-	cae-	.	.	.	4B-/	.	.
.	.	.	.	.	.	.	.	.	4A/	.	.
=7-	=7-	=7-	=7-	=7-	=7-	=7-	=7-	=7-	=7-	=7-	=7-
2C/	-ni-	-ni-	2E/	-li	-li	2c\	fac-	fac-	2G/	.	.
2FF/	-po-	-po-	1F	et	et	2c\	-to-	-to-	4A/	.	.
.	.	.	.	.	.	.	.	.	4B-/	.	.
*custos:FF	*	*	*	*	*	*	*	*	*	*	*
1C	-ten-	-ten-	.	.	.	1G	-rem	-rem	1c	-tem	-tem
*	*	*	*custos:F	*	*	*	*	*	*	*	*
.	.	.	2E/	ter-	ter-	.	.	.	.	.	.
*	*	*	*	*	*	*	*	*	*	*Xij	*Xij
!LO:LB:g=original	!	!	!LO:LB:g=original	!	!	!	!	!	!	!	!
=8-	=8-	=8-	=8-	=8-	=8-	=8-	=8-	=8-	=8-	=8-	=8-
1FF	-tem	-tem	2F/	-rae,	-rae	2A/	coe-	cae-	2r	.	.
.	.	.	1A	e(t)	et	1F	.	-li	1c	fac-	fa-
2r	.	.	.	.	.	.	.	.	.	.	.
1C	fac-	fac-	4G/	ter-	ter-	4E/	-li	et	2c/	-to-	-cto-
.	.	.	4F/	-rae.	.	4D/	.	.	.	.	.
=9-	=9-	=9-	=9-	=9-	=9-	=9-	=9-	=9-	=9-	=9-	=9-
.	.	.	2E/	.	-rae	2C/	et	.	1G	-rem	-rem
2C/	-to-	-to-	1G	fac-	fac-	2E/	t(er)-	ter-	.	.	.
1GG	-rem	-rem	.	.	.	2D/	-rae	-rae	1B-	cae-	cae-
.	.	.	2G/	-to-	-to-	1d	c(oe)-	cae-	.	.	.
=10-	=10-	=10-	=10-	=10-	=10-	=10-	=10-	=10-	=10-	=10-	=10-
1BB-	coe-	coe-	2D/	-rem	-rem	.	.	.	2.F/	-li	-li
*	*	*	*	*	*	*custos:c	*	*	*	*	*
.	.	.	2D/	cae-	cae-	2B-\	-li	-li	.	.	.
.	.	.	.	.	.	.	.	.	4G/	et	et
!	!	!	!	!	!	!LO:LB:g=original	!	!	!	!	!
2AA/	-li	-li	2E/	-li	-li	2c\	et	et	2A/	t(e)r-	ter-
2FF/	et	et	1F	et	et	2A\	ter-	ter-	2c/	-rae	.
=11-	=11-	=11-	=11-	=11-	=11-	=11-	=11-	=11-	=11-	=11-	=11-
1GG	t(er)-	ter-	.	.	.	1G	-rae	.	1B-	.	-rae
.	.	.	2E/	ter-	ter-	.	.	.	.	.	.
0FF	-rae	-rae	2F/	-rae,	-rae	2C/	.	-rae	2A/	vi-	vi-
*	*	*	*	*	*	*	*ij	*ij	*	*	*
.	.	.	2C/	cae-	cae-	4F/	et	et	2c/	-ſi-	-si-
.	.	.	.	.	.	4G/	.	.	.	.	.
=12-	=12-	=12-	=12-	=12-	=12-	=12-	=12-	=12-	=12-	=12-	=12-
.	.	.	2F/	-li	-li	4A/	ter-	ter-	2c/	-bi-	-bi-
.	.	.	.	.	.	4B-/	.	.	.	.	.
.	.	.	2A/	et	et	1c	.	.	2c/	-li-	-li-
1r	.	.	1G	ter-	ter-	.	.	.	1d	-um	-um
!	!	!	!	!	!	!LO:SIC:s=2Bi	!	!	!	!	!
.	.	.	.	.	.	2B-\	.	.	.	.	.
=13-	=13-	=13-	=13-	=13-	=13-	=13-	=13-	=13-	=13-	=13-	=13-
*	*	*	*custos:F	*	*	*	*	*	*	*	*
1r	.	.	1C	-rae	-rae	0c	-rae	-rae	1e	o(m-	om-
*	*	*	*	*	*	*	*	*	*custos:d	*	*
!	!	!	!LO:LB:g=original	!	!	!	!	!	!	!	!
1FF	vi-	vi-	1F	Vi-	vi-	.	.	.	1f	-n)i-	.
!	!	!	!	!	!	!	!	!	!LO:LB:g=original	!	!
*	*	*	*	*	*	*	*Xij	*Xij	*	*	*
=14-	=14-	=14-	=14-	=14-	=14-	=14-	=14-	=14-	=14-	=14-	=14-
2BB-/	-ſi-	-ſi-	2F/	-si-	-si-	1r	.	.	1d	-(u)m	-ni-
2D/	-bi-	-bi-	2F/	-bi-	-bi-	.	.	.	.	.	.
1C	-li-	-li-	1G	-li-	-li-	1c	Vi-	vi-	1e	.	-um
=15-	=15-	=15-	=15-	=15-	=15-	=15-	=15-	=15-	=15-	=15-	=15-
1F	-um	-um	1A	-um	-um	2c\	-ſi-	-ſi-	2r	.	.
.	.	.	.	.	.	2c\	-bi-	-bi-	2f\	et	et
2BB-/	om-	om-	1B-	om-	om-	1d	-li-	-li-	2f\	in-	in-
2BB-/	-ni-	-ni-	.	.	.	.	.	.	2f\	-vi-	-vi-
=16-	=16-	=16-	=16-	=16-	=16-	=16-	=16-	=16-	=16-	=16-	=16-
2C/	-um	-um	1G	-ni-	-ni-	1e	-um	-um	2c/	-ſi-	-ſi-
2C/	e(t)	et	.	.	.	.	.	.	2c/	-bi-	-bi-
1D	in-	in-	2F/	-um,	-um	2f\	om-	om-	2A/	-li-	-li-
.	.	.	2F/	e(t)	et	2.d\	-ni-	-ni-	2A/	-um	-um
=17-	=17-	=17-	=17-	=17-	=17-	=17-	=17-	=17-	=17-	=17-	=17-
*	*	*	*	*	*	*	*	*	*	*ij	*ij
4GG/	-vi-	-vi-	1G	in-	in-	.	.	.	4B-/	et	et
4AA/	.	.	.	.	.	4c\	-um	.	4c/	.	.
4BB-/	.	.	.	.	.	2B-\	.	.	4d\	.	.
4C/	.	.	.	.	.	.	.	.	4e\	.	.
4D\	.	.	1D	-vi-	-vi-	1A	.	-um	4f\	in-	in-
4E\	-ſi-	.	.	.	.	.	.	.	4g\	.	.
*custos:C	*	*	*	*	*	*	*	*	*	*	*
2F\	.	-si-	.	.	.	.	.	.	4a\	-vi-	-vi-
.	.	.	.	.	.	.	.	.	4f\	.	.
!LO:LB:g=original	!	!	!	!	!	!	!	!	!	!	!
=18-	=18-	=18-	=18-	=18-	=18-	=18-	=18-	=18-	=18-	=18-	=18-
2C/	-bi-	-bi-	2E/	-ſi-	-ſi-	2c\	et	et	4g\	-ſi-	-ſi-
.	.	.	.	.	.	.	.	.	4f\	.	.
*	*	*	*	*	*	*custos:c	*	*	*	*	*
2D/	-li-	-li-	2F/	-bi-	-bi-	2B-\	in-	in-	1f	-bi-	-bi-
!	!	!	!	!	!	!LO:LB:g=original	!	!	!	!	!
1C	-um	-um.	1G	-li-	-li-	1c	-ui-	-vi-	.	.	.
.	.	.	.	.	.	.	.	.	2e\	-li-	-li-
=19-	=19-	=19-	=19-	=19-	=19-	=19-	=19-	=19-	=19-	=19-	=19-
2r	.	.	1F	-um	-um.	2.A\	-ſi-	-ſi-	0f	-um	-um.
1F	et	Et	.	.	.	.	.	.	.	.	.
*	*	*	*	*	*	*	*	*	*	*Xij	*Xij
.	.	.	.	.	.	4G/	.	.	.	.	.
.	.	.	1r	.	.	4A\	.	.	.	.	.
.	.	.	.	.	.	4B-\	.	.	.	.	.
2F\	in	in	.	.	.	1c	-bi-	-bi-	.	.	.
=20-	=20-	=20-	=20-	=20-	=20-	=20-	=20-	=20-	=20-	=20-	=20-
1G	V-	u-	1r	.	.	.	.	.	1r	.	.
!	!	!	!	!	!	!LO:SIC:s=2Bi	!	!	!	!	!
.	.	.	.	.	.	2B-\	-li-	-li-	.	.	.
2F\	-num	-num	1.c	Et	Et	2c\	-um	-um.	1f	Et	Et
2F\	do-	Do-	.	.	.	2A/	et	Et	.	.	.
=21-	=21-	=21-	=21-	=21-	=21-	=21-	=21-	=21-	=21-	=21-	=21-
2C/	-(m)i-	-mi-	.	.	.	2G/	in	in	2e\	in	in
*	*	*	*custos:d	*	*	*	*	*	*	*	*
2F\	-(n)u(m)	-num	2c\	in	in	2A/	v-	u-	2f\	v-	u-
*	*	*	*	*	*	*	*	*	*custos:c	*	*
!	!	!	!LO:LB:g=original	!	!	!	!	!	!	!	!
4BB-/	noſ-	no-	1d	v-	u-	2B-\	-num	-num	0f	-num	-num
4C/	.	.	.	.	.	.	.	.	.	.	.
4D\	-tru(m)	.	.	.	.	2B-\	do-	Do-	.	.	.
4E\	.	.	.	.	.	.	.	.	.	.	.
!	!	!	!	!	!	!	!	!	!LO:LB:g=original	!	!
=22-	=22-	=22-	=22-	=22-	=22-	=22-	=22-	=22-	=22-	=22-	=22-
1F	.	-strum	1c	-num	-num	2.A/	-mi-	-mi-	.	.	.
.	.	.	.	.	.	4G/	.	.	.	.	.
2r	.	.	1A	Do-	Do-	2F/	-num	-num	2.c/	Do-	Do-
*	*ij	*ij	*	*	*	*	*	*	*	*	*
2F\	/do-	Do-	.	.	.	2A/	n(ost)-	no-	.	.	.
.	.	.	.	.	.	.	.	.	4c/	-mi-	-mi-
=23-	=23-	=23-	=23-	=23-	=23-	=23-	=23-	=23-	=23-	=23-	=23-
2E-X\	-(m)i-	-mi-	2B-\	-mi-	.	1G	-rum	-strum	1e-X	-nu(m)	-num
2C/	-(n)u(m)	-num	2.c\	-num	.	.	.	.	.	.	.
1G	noſ-	no-	.	.	.	2r	.	.	1d	n(ost)-	no-
!	!	!	!LO:SIC:s=8BiL	!	!	!	!	!	!	!	!
.	.	.	8B-\	.	.	.	.	.	.	.	.
!	!	!	!LO:SIC:s=8AJ	!	!	!	!	!	!	!	!
.	.	.	8A\	.	.	.	.	.	.	.	.
!	!	!	!LO:SIC:s=2Bi	!	!	!	!	!	!	!	!
.	.	.	2B-\	.	-mi-	1G	Je-	Je-	.	.	.
=24-	=24-	=24-	=24-	=24-	=24-	=24-	=24-	=24-	=24-	=24-	=24-
2C/	-tru(m)	-strum	0c	.	-num	.	.	.	2c/	-rum	-strum
*	*Xij	*Xij	*	*	*	*custos:A	*	*	*	*	*
!	!	!	!	!	!	!	!	!	!LO:MO:mod=!null:null	!	!
!	!	!	!	!	!	!	!	!	!LO:N:acc=#	!	!
!	!	!	!	!	!	!	!	!	!LO:SIC:s=1e	!	!
1C	Je-	Je-	.	.	.	2G/	-ſum	-ſum	1en	JE-	Je-
!	!	!	!	!	!	!LO:LB:g=original	!	!	!	!	!
.	.	.	.	.	.	2A/	Chr(i-	Chri-	.	.	.
2C/	-ſum	-ſum	.	.	.	2G/	-stu)m	-stum	2e\	-ſum	-ſum
=25-	=25-	=25-	=25-	=25-	=25-	=25-	=25-	=25-	=25-	=25-	=25-
*custos:C	*	*	*	*	*	*	*	*	*	*	*
1D	Chri-	Chri-	1r	.	.	4F/	fi-	Fi-	4d\	.	Chri-
.	.	.	.	.	.	4G/	.	.	4e\	Chr(i-	.
.	.	.	.	.	.	4A/	.	.	4f\	.	.
.	.	.	.	.	.	4B-/	.	.	4d\	-st)um	.
!LO:LB:g=original	!	!	!	!	!	!	!	!	!	!	!
2C/	-ſtum	-ſtum	1.c	JE-	Je-	2c\	-li-	-li-	2e\	.	-stum
*	*	*	*	*	*	*	*	*	*	*ij	*ij
2C/	fi-	Fi-	.	.	.	2G/	-um	-um	1e	Chr(i-	Chri-
=26-	=26-	=26-	=26-	=26-	=26-	=26-	=26-	=26-	=26-	=26-	=26-
2AA/	-li-	-li-	.	.	.	1A	de-	De-	.	.	.
2FF/	-um	-um	2c\	-ſum	-ſum	.	.	.	2f\	.	.
4BB-/	de-	De-	1d	Chri-	Chri-	1B-	-i	-i	0f	-st)um	-stum
4C/	.	.	.	.	.	.	.	.	.	.	.
4D/	.	.	.	.	.	.	.	.	.	.	.
4E/	.	.	.	.	.	.	.	.	.	.	.
*	*	*	*	*	*	*	*	*	*	*Xij	*Xij
=27-	=27-	=27-	=27-	=27-	=27-	=27-	=27-	=27-	=27-	=27-	=27-
2F\	-i	-i	2.c\	.	.	2.A\	V-	u-	.	.	.
*	*ij	*ij	*	*	*	*	*	*	*	*	*
1F	fi-	Fi-	.	.	.	.	.	.	.	.	.
.	.	.	4B-\	-ſtum	.	4B-\	.	.	.	.	.
.	.	.	2A/	.	-stum	1c	-ni-	-ni-	2c/	fi-	Fi-
2E\	-li-	-li-	2G/	fi-	Fi-	.	.	.	2.g\	-li-	-li-
=28-	=28-	=28-	=28-	=28-	=28-	=28-	=28-	=28-	=28-	=28-	=28-
2D\	-um	-um	2A/	-li-	-li-	1d	-ge-	-ge-	.	.	.
.	.	.	.	.	.	.	.	.	4f\	-um	.
*	*	*	*custos:G	*	*	*	*	*	*	*	*
2BB-/	de-	De-	2B-\	-um	-um	.	.	.	1f	de-	-um
!	!	!	!LO:LB:g=original	!	!	!	!	!	!	!	!
1C	-i	-i	1G	de-	De-	2.c\	-ni-	-ni-	.	.	.
*	*Xij	*Xij	*	*	*	*	*	*	*	*	*
.	.	.	.	.	.	.	.	.	2e\	-i	De-
.	.	.	.	.	.	4B-\	.	.	.	.	.
=29-	=29-	=29-	=29-	=29-	=29-	=29-	=29-	=29-	=29-	=29-	=29-
2r	.	.	2F/	-i,	-i	4A\	.	.	1f	u-	-i
.	.	.	.	.	.	4G\	.	.	.	.	.
2BB-/	V-	u-	2D/	v-	u-	2F/	-tum	-tum	.	.	.
2AA/	-ni-	-ni-	2E/	-ni-	-ni-	1A	V-	u-	2c/	-ni-	u-
2FF/	-ge-	-ge-	2.F/	-ge-	-ge-	.	.	.	2.d\	-ge-	-ni-
=30-	=30-	=30-	=30-	=30-	=30-	=30-	=30-	=30-	=30-	=30-	=30-
1AA	-ni-	-ni-	.	.	.	2A/	-ni-	-ni-	.	.	.
.	.	.	4E/	.	.	.	.	.	4c/	-ni-	.
.	.	.	4D/	.	.	2F/	-ge-	-ge-	1c	-tum	-ge-
.	.	.	4C/	.	.	.	.	.	.	.	.
1GG	-tum	-tum.	1D	-ni-	-ni-	1G	-ni-	-ni-	.	.	.
*	*	*	*	*	*	*	*	*	*custos:c	*	*
!	!	!	!	!	!	!	!	!	!LO:SIC:s=2Bi	!	!
.	.	.	.	.	.	.	.	.	2B-/	.	-ni-
=31-	=31-	=31-	=31-	=31-	=31-	=31-	=31-	=31-	=31-	=31-	=31-
2r	.	.	1C	-tum.	-tum.	1G	-tu(m)	-tum.	0c	.	-tum.
1C	et	Et	.	.	.	.	.	.	.	.	.
.	.	.	1r	.	.	2r	.	.	.	.	.
*	*	*	*	*	*	*custos:B-	*	*	*	*	*
2C/	ex	ex	.	.	.	2c\	et	Et	.	.	.
!	!	!	!	!	!	!LO:LB:g=original	!	!	!	!	!
=32-	=32-	=32-	=32-	=32-	=32-	=32-	=32-	=32-	=32-	=32-	=32-
2D\	pa-	Pa-	1r	.	.	2B-\	ex	ex	0r	.	.
2E\	-tre	-tre	.	.	.	2G/	pa-	Pa-	.	.	.
1F	na-	na-	2r	.	.	2A/	-tre	-tre	.	.	.
.	.	.	1F	Et	Et	2.c\	na-	na-	.	.	.
=33-	=33-	=33-	=33-	=33-	=33-	=33-	=33-	=33-	=33-	=33-	=33-
*custos:C	*	*	*	*	*	*	*	*	*	*	*
1D	-tu(m)	-tum	.	.	.	.	.	.	1f	Et	Et
!	!	!	!	!	!	!LO:SIC:s=8BiL	!	!	!	!	!
.	.	.	.	.	.	8B-/L	.	.	.	.	.
.	.	.	.	.	.	8A/J	.	.	.	.	.
!	!	!	!	!	!	!LO:SIC:s=2Bi	!	!	!	!	!
.	.	.	2F/	ex	ex	2B-\	-tum	.	.	.	.
!LO:LB:g=original	!	!	!	!	!	!	!	!	!	!	!
1C	an-	an-	2G/	pa-	Pa-	1c	.	-tum	2e\	ex	ex
.	.	.	2A/	-tre	-tre	.	.	.	2c/	p(at)-	Pa-
=34-	=34-	=34-	=34-	=34-	=34-	=34-	=34-	=34-	=34-	=34-	=34-
2BB-/	-te	-te	1B-	na-	na-	2r	.	.	2d\	-re	-tre
2BB-/	om-	om-	.	.	.	2d\	an-	an-	1f	na-	na-
1C	-ni-	-ni-	1G	-tum	-tum	2.c\	-te	-te	.	.	.
.	.	.	.	.	.	.	.	.	2e\	-tu(m)	.
.	.	.	.	.	.	4B-\	.	.	.	.	.
=35-	=35-	=35-	=35-	=35-	=35-	=35-	=35-	=35-	=35-	=35-	=35-
2FF/	-a	-a	2F/	an-	an-	4A/	.	.	2f\	an-	-tum
.	.	.	.	.	.	4G/	.	.	.	.	.
*	*	*	*custos:G	*	*	*	*	*	*	*	*
*	*ij	*ij	*	*	*	*	*	*	*	*	*
2FF/	an-	an-	2A/	-(te)	-te	2F/	.	.	2c/	.	an-
!	!	!	!LO:LB:g=original	!	!	!	!	!	!	!	!
2GG/	-te	-te	2G/	om-	om-	2B-\	om-	om-	2B-/	-te	-te
2BB-/	om-	om-	2D/	-ni-	-ni-	2.d\	-ni-	-ni-	2G/	.	om-
=36-	=36-	=36-	=36-	=36-	=36-	=36-	=36-	=36-	=36-	=36-	=36-
2AA/	-ni-	-ni-	2E/	-a	-a	.	.	.	2A/	.	-ni-
.	.	.	.	.	.	4c\	-a	-a	.	.	.
2FF/	-a	-a	2F/	ſe-	sae-	1c	ſe-	sae-	2A/	.	-a
*	*Xij	*Xij	*	*	*	*	*	*	*	*	*
2GG/	ſe-	sae-	1D	-cu-	-cu-	.	.	.	1G	ſe-	sae-
!	!	!	!	!	!	!LO:SIC:s=2Bi	!	!	!	!	!
2GG/	-cu-	-cu-	.	.	.	2B-\	-cu-	-cu-	.	.	.
=37-	=37-	=37-	=37-	=37-	=37-	=37-	=37-	=37-	=37-	=37-	=37-
1C	-la	-la.	2C/	-la	-la.	1c	-la	-la.	1G	-cu-	-cu-
.	.	.	1c	De-	De-	.	.	.	.	.	.
2r	.	.	.	.	.	1r	.	.	0A	-la.	-la.
1F	De-	De-	2c\	-um	-um	.	.	.	.	.	.
=38-	=38-	=38-	=38-	=38-	=38-	=38-	=38-	=38-	=38-	=38-	=38-
.	.	.	2d\	de	de	1r	.	.	.	.	.
2F\	-um	-um	2c\	de-	De-	.	.	.	.	.	.
2G\	de	de	2B-\	-o	-o	2r	.	.	1r	.	.
2F\	de-	De-	2A\	Lu-	lu-	1c	De-	De-	.	.	.
=39-	=39-	=39-	=39-	=39-	=39-	=39-	=39-	=39-	=39-	=39-	=39-
2E\	-o	-o	2G/	-men	-men	.	.	.	2r	.	.
2F\	lu-	lu-	2A/	de	de	2c\	-um	-um	1f	DE-	De-
1D	-men	-men	2A/	lu-	lu-	1d	de	de	.	.	.
.	.	.	2A/	-mi-	-mi-	.	.	.	2f\	-um	-um
=40-	=40-	=40-	=40-	=40-	=40-	=40-	=40-	=40-	=40-	=40-	=40-
*	*	*	*	*	*	*custos:c	*	*	*	*	*
2E\	de	de	2G/	-ne,	-ne,	1c	De-	De-	2g\	de	de
*custos:C	*	*	*custos:G	*	*	*	*	*	*	*	*
2F\	lu-	lu-	2A/	de-	De-	.	.	.	2f\	de-	De-
!LO:LB:g=original	!	!	!LO:LB:g=original	!	!	!LO:LB:g=original	!	!	!	!	!
2C/	-mi-	-mi-	2G/	-um	-um	2c\	-o	-o	2e\	-o,	-o
*	*	*	*	*	*	*	*	*	*custos:d	*	*
2FF/	-ne	-ne	2F/	de	de	2A\	lu-	lu-	2f\	Lu-	lu-
!	!	!	!	!	!	!	!	!	!LO:LB:g=original	!	!
=41-	=41-	=41-	=41-	=41-	=41-	=41-	=41-	=41-	=41-	=41-	=41-
00r	.	.	2G/	de-	De-	4B-\	.	-men	1d	-men	-men
.	.	.	.	.	.	4c\	-men	.	.	.	.
.	.	.	2B-\	-o	-o	4d\	.	.	.	.	.
.	.	.	.	.	.	4B-\	.	.	.	.	.
.	.	.	2A/	Lu-	lu-	2c\	de	de	2e\	de	de
.	.	.	2F/	-men	-men	2.d\	lu-	lu-	2.f\	.	lu-
=42-	=42-	=42-	=42-	=42-	=42-	=42-	=42-	=42-	=42-	=42-	=42-
.	.	.	2A/	de	de	.	.	.	.	.	.
.	.	.	.	.	.	4c\	.	.	4e\	Lu-	.
.	.	.	2A/	Lu-	lu-	1c	-mi-	.	4d\	.	.
.	.	.	.	.	.	.	.	.	4c\	-mi-	.
.	.	.	1G	-mi-	-mi-	.	.	.	1d	-ne,	-mi-
!	!	!	!	!	!	!LO:SIC:s=2Bi	!	!	!	!	!
.	.	.	.	.	.	2B-\	-ne	-mi-	.	.	.
=43-	=43-	=43-	=43-	=43-	=43-	=43-	=43-	=43-	=43-	=43-	=43-
1.C	De-	De-	0G	-ne	-ne	0c	.	-ne	2c/	.	-ne
.	.	.	.	.	.	.	.	.	1e	De-	De-
2C/	-um	-um	.	.	.	.	.	.	2e\	-um	-um
=44-	=44-	=44-	=44-	=44-	=44-	=44-	=44-	=44-	=44-	=44-	=44-
2D/	ve-	ve-	2r	.	.	0r	.	.	2f\	ve-	ve-
2C/	-rum	-rum	1G	De-	De-	.	.	.	2e\	-ru(m)	-rum
!LO:SIC:s=2BBi	!	!	!	!	!	!	!	!	!	!	!
2BB-/	de	de	.	.	.	.	.	.	2d\	de	de
2C/	De-	De-	2G/	-um	-um	.	.	.	2e\	de-	De-
=45-	=45-	=45-	=45-	=45-	=45-	=45-	=45-	=45-	=45-	=45-	=45-
2FF/	-o	-o	2A/	ve-	ve-	1.c	De-	De-	2f\	-o	-o
2C/	ve-	ve-	2G/	-rum,	-rum	.	.	.	2e\	ve-	ve-
2FF/	-ro	-ro	2F/	de	de	.	.	.	2c/	-ro.	-ro
*	*	*	*custos:D	*	*	*	*	*	*	*	*
*	*	*	*	*	*	*	*	*	*	*ij	*ij
2C/	De-	De-	2G/	de-	De-	2c\	-um	-um	2e\	De-	De-
!	!	!	!LO:LB:g=original	!	!	!	!	!	!	!	!
=46-	=46-	=46-	=46-	=46-	=46-	=46-	=46-	=46-	=46-	=46-	=46-
2BB-/	-um	-um	2D/	-o,	-o	2d\	ve-	ve-	1f	-um	-um
2AA/	ve-	ve-	2.F/	de	de	2c\	-rum	-rum	.	.	.
2BB-/	-rum	-rum	.	.	.	2B-\	.	de	2f\	ve-	ve-
.	.	.	4G/	.	.	.	.	.	.	.	.
2FF/	de	de	2A/	de-	De-	2c\	de	De-	2f\	-ru(m)	-rum
=47-	=47-	=47-	=47-	=47-	=47-	=47-	=47-	=47-	=47-	=47-	=47-
2BB-/	de-	De-	4G/	.	-o	4B-\	.	-o	2d\	de	de
.	.	.	4F/	-o,	.	4A\	De-	.	.	.	.
2D/	-o	-o	1F	ve-	ve-	4G\	.	.	2B-/	de-	De-
.	.	.	.	.	.	4F\	-o	.	.	.	.
*	*	*	*	*	*	*lig	*	*	*	*	*
1C	ve-	ve-	.	.	.	1G	Ve-	ve-	2c/	-o	-o
*	*	*	*	*	*	*	*	*	*custos:c	*	*
.	.	.	2E/	.	.	.	.	.	2c/	ve-	ve-
!	!	!	!	!	!	!	!	!	!LO:LB:g=original	!	!
=48-	=48-	=48-	=48-	=48-	=48-	=48-	=48-	=48-	=48-	=48-	=48-
*	*	*	*	*	*	*custos:G	*	*	*	*	*
2FF/	-ro	-ro.	1F	-ro.	-ro.	1A	.	.	0c	-ro.	-ro.
2F\	ge-	Ge-	.	.	.	.	.	.	.	.	.
!	!	!	!	!	!	!LO:LB:g=original	!	!	!	!	!
*	*	*	*	*	*	*Xlig	*	*	*	*Xij	*Xij
2E\	-ni-	-ni-	2r	.	.	1G	-ro	-ro.	.	.	.
*custos:D	*	*	*	*	*	*	*	*	*	*	*
2C/	-tu(m)	-tum	2c\	Ge-	Ge-	.	.	.	.	.	.
!LO:LB:g=original	!	!	!	!	!	!	!	!	!	!	!
=49-	=49-	=49-	=49-	=49-	=49-	=49-	=49-	=49-	=49-	=49-	=49-
2D\	non	non	2B-\	-ni-	-ni-	0r	.	.	1r	.	.
2E\	.	fac-	2G/	-tum	-tum	.	.	.	.	.	.
2F\	fac-	-tum	2A\	non	non	.	.	.	1f	Ge-	Ge-
*	*	*ij	*	*	*	*	*	*	*	*	*
2D/	.	ge-	2B-\	fac-	fac-	.	.	.	.	.	.
=50-	=50-	=50-	=50-	=50-	=50-	=50-	=50-	=50-	=50-	=50-	=50-
2C/	-tum	-ni-	2c\	-tu(m)	-tum	2r	.	.	2e\	-ni-	-ni-
*	*ij	*	*	*ij	*ij	*	*	*	*	*	*
2AA/	.	-tum	2C/	ge-	ge-	2c\	ge-	Ge-	2c/	-tum,	-tum
2BB-/	non	non	2F/	-ni-	-ni-	2B-\	-ni-	-ni-	2d\	non	non
*	*	*	*custos:C	*	*	*	*	*	*	*	*
2C/	fac-	fac-	2E/	-tum	-tum	2G/	-tum	-tum	2e\	fac-	fac-
!	!	!	!LO:LB:g=original	!	!	!	!	!	!	!	!
=51-	=51-	=51-	=51-	=51-	=51-	=51-	=51-	=51-	=51-	=51-	=51-
0FF	-tum	-tum	2C/	non	non	2.A/	non	non	2f\	-tu(m),	-tum
.	.	.	2D/	fac-	fac-	.	.	.	1F	con-	con-
.	.	.	.	.	.	4B-\	f(a)c-	fac-	.	.	.
.	.	.	2C/	-tu(m)	-tum	0c	-t(u)m	-tum	.	.	.
*	*Xij	*Xij	*	*Xij	*Xij	*	*	*	*	*	*
.	.	.	1C	con-	con-	.	.	.	2F/	-ſub-	-ſub-
=52-	=52-	=52-	=52-	=52-	=52-	=52-	=52-	=52-	=52-	=52-	=52-
0r	.	.	.	.	.	.	.	.	2G/	-ſtan-	-ſtan-
.	.	.	2C/	-ſub-	-ſub-	.	.	.	2A/	-ti-	-ti-
.	.	.	2D/	-ſtan-	-ſtan-	1r	.	.	2B-/	-a-	-a-
.	.	.	2E/	-ti-	-ti-	.	.	.	2G/	-lem	-lem
=53-	=53-	=53-	=53-	=53-	=53-	=53-	=53-	=53-	=53-	=53-	=53-
1.FF	con-	con-	2.F/	-a-	-a-	1.c	con-	con-	2A/	p(at)-	Pa-
.	.	.	.	.	.	.	.	.	2A/	-ri	-tri
.	.	.	4E/	.	.	.	.	.	.	.	.
*	*	*	*	*	*	*	*	*	*	*ij	*ij
.	.	.	4F/	.	.	.	.	.	1A	con-	con-
.	.	.	4G/	.	.	.	.	.	.	.	.
2FF/	-ſub-	-ſub-	2A/	.	.	2c\	-ſub-	-ſub-	.	.	.
=54-	=54-	=54-	=54-	=54-	=54-	=54-	=54-	=54-	=54-	=54-	=54-
2GG/	-ſtan-	-ſtan-	2G/	.	.	2B-\	-ſtan-	-ſtan-	2D/	-ſub-	-ſub-
2AA/	-ti-	-ti-	4F/	.	.	2A/	-ti-	-ti-	2F/	-ſtan-	-ſtan-
.	.	.	4E/	.	.	.	.	.	.	.	.
2BB-/	-a-	-a-	2D/	.	.	2G/	-a-	-a-	2G/	-ti-	-ti-
2AA/	-le(m)	-lem	1C	-lem	-lem	1F	-le(m)	-lem	2A/	-a-	-a-
=55-	=55-	=55-	=55-	=55-	=55-	=55-	=55-	=55-	=55-	=55-	=55-
1GG	p(at)-	Pa-	.	.	.	.	.	.	2B-/	-lem	-lem
*	*	*	*	*	*	*	*	*	*custos:A	*	*
.	.	.	2BB-/	p(at)-	Pa-	2E/	p(at)-	Pa-	2B-/	p(at)-	Pa-
!	!	!	!	!	!	!	!	!	!LO:LB:g=original	!	!
1FF	-ri	-tri	1C	-ri	-tri	1F	-ri	-tri	2A/	-ri	-tri
*	*	*	*	*	*	*	*	*	*	*Xij	*Xij
.	.	.	.	.	.	.	.	.	1c	per	per
=56-	=56-	=56-	=56-	=56-	=56-	=56-	=56-	=56-	=56-	=56-	=56-
1r	.	.	1D	per	per	1F	per	per	.	.	.
.	.	.	.	.	.	.	.	.	2B-/	q(uem)	quem
*	*	*	*custos:D	*	*	*	*	*	*	*	*
2r	.	.	1C	q(eum)	qeum	2G/	quem	quem	2.c/	o(m-	om-
1C	per	per	.	.	.	2E/	o(m-	om-	.	.	.
.	.	.	.	.	.	.	.	.	4B-/	-n)i-	-ni-
!	!	!	!LO:LB:g=original	!	!	!	!	!	!	!	!
=57-	=57-	=57-	=57-	=57-	=57-	=57-	=57-	=57-	=57-	=57-	=57-
.	.	.	1D	om-	om-	1F	-n)i-	-ni-	2A/	-a	-a
2BB-/	que(m)	quem	.	.	.	.	.	.	2B-/	.	.
2C/	o(m-	om-	2E/	-ni-	-ni-	2C/	-a	-a	2G/	fac-	fac-
2AA/	-n)i-	-ni-	2E/	-a	-a	1c	fac-	fac-	2.A/	-ta	.
=58-	=58-	=58-	=58-	=58-	=58-	=58-	=58-	=58-	=58-	=58-	=58-
2D/	-a	-a	1F	fac-	fac-	.	.	.	.	.	.
.	.	.	.	.	.	.	.	.	4G/	.	.
*custos:C	*	*	*	*	*	*custos:c	*	*	*	*	*
!	!	!	!	!	!	!LO:SIC:s=2Bi	!	!	!	!	!
2D/	fa-	fa-	.	.	.	2B-\	-ta	-ta	1F	.	.
!LO:LB:g=original	!	!	!	!	!	!LO:LB:g=original	!	!	!	!	!
1C	-cta	-cta	1G	-ta	-ta	1c	ſunt	sunt.	.	.	.
.	.	.	.	.	.	.	.	.	2E/	ſunt.	-ta
=59-	=59-	=59-	=59-	=59-	=59-	=59-	=59-	=59-	=59-	=59-	=59-
2FF/	sut	sunt.	1F	ſunt	ſunt.	1.A	Qui	Qui	2F/	.	sunt.
1FF	q(ui)	Qui	.	.	.	.	.	.	1c	qui	Qui
.	.	.	2r	.	.	.	.	.	.	.	.
2FF/	p(ro)p-	prop-	1F	q(ui)	Qui	2A\	p(ro)p-	prop-	2c/	p(ro)p-	prop-
=60-	=60-	=60-	=60-	=60-	=60-	=60-	=60-	=60-	=60-	=60-	=60-
1BB-	-ter	-ter	.	.	.	1B-	-ter	-ter	1d	-t(er)	-ter
.	.	.	2F/	Pro-	pro-	.	.	.	.	.	.
1FF	nos	nos	1F	-pter	-pter	1A	nos	nos	1c	nos	nos
=61-	=61-	=61-	=61-	=61-	=61-	=61-	=61-	=61-	=61-	=61-	=61-
2AA/	ho-	ho-	2C/	nos	nos	2F/	ho-	ho-	1A	ho-	ho-
2AA/	-(m)i-	-mi-	2C/	ho-	ho-	2F/	-(m)i-	-mi-	.	.	.
1GG	-(n)es	-nes	1D	-mi-	-mi-	2G/	-(n)es	-nes	1B-	-mi-	-mi-
.	.	.	.	.	.	2G/	et	et	.	.	.
=62-	=62-	=62-	=62-	=62-	=62-	=62-	=62-	=62-	=62-	=62-	=62-
1C	et	et	2E/	-nes,	-nes	2G/	prop-	prop-	2c/	-nes	-nes
.	.	.	2G/	e(t)	et	2G/	-ter	-ter	2c/	et	et
2C/	p(ro)p-	prop-	2G/	prop-	prop-	1E	n(ost)-	nos-	2c/	p(ro)p-	prop-
2C/	-ter	-ter	2A/	-t(er)	-ter	.	.	.	2c/	-t(er)	-ter
=63-	=63-	=63-	=63-	=63-	=63-	=63-	=63-	=63-	=63-	=63-	=63-
*	*	*	*custos:A	*	*	*	*	*	*custos:c	*	*
4BB-/	no-	no-	1B-	no-	no-	2D/	-ram	-tram	1d	n(ost)-	nos-
4C/	.	.	.	.	.	.	.	.	.	.	.
4D\	.	.	.	.	.	2F/	ſa-	ſa-	.	.	.
4E\	.	.	.	.	.	.	.	.	.	.	.
!	!	!	!LO:LB:g=original	!	!	!	!	!	!LO:LB:g=original	!	!
2F\	.	.	2A/	-ſtram	-ſtram	2F/	-lu-	-lu-	2.c/	-ram	-tram
2C/	-ſtra(m)	-ſtram	2.G/	.	sa-	2E/	-te(m)	-tem	.	.	.
.	.	.	.	.	.	.	.	.	4B-/	ſa-	.
=64-	=64-	=64-	=64-	=64-	=64-	=64-	=64-	=64-	=64-	=64-	=64-
2D/	ſa-	ſa-	.	.	.	2r	.	.	2A/	-lu-	.
.	.	.	4F/	ſa-	.	.	.	.	.	.	.
2BB-/	-lu-	-lu-	1F	-lu-	.	2F/	de-	de-	2B-/	-tem	sa-
1C	-te(m)	-tem	.	.	.	1c	-ſcen-	-ſcen-	1G	.	-lu-
.	.	.	2E/	-tem	-lu-	.	.	.	.	.	.
=65-	=65-	=65-	=65-	=65-	=65-	=65-	=65-	=65-	=65-	=65-	=65-
2r	.	.	2F/	.	-tem	2A\	-dit	-dit	2F/	de-	-tem
2BB-/	de-	de-	2F/	De-	de-	2d\	de	de	2D/	.	de-
2AA/	-ſce(n)-	-ſcen-	1A	-ſcen-	-ſcen-	1c	coe-	cae-	2E/	-ſcen-	-ſcen-
2FF/	-dit	-dit	.	.	.	.	.	.	1F	-dit	-dit
=66-	=66-	=66-	=66-	=66-	=66-	=66-	=66-	=66-	=66-	=66-	=66-
*	*	*	*	*	*	*custos:c	*	*	*	*	*
2BB-/	de	de	2B-\	-dit	-dit	2d\	-lis	-lis	.	.	.
*custos:GG	*	*	*	*	*	*	*	*	*	*	*
2C/	coe-	cae-	2G/	de	de	1c	.	[de-	2E/	de	de
!LO:LB:g=original	!	!	!	!	!	!	!	!	!	!	!
1GG	-lis	-lis	1G	cae-	cae-	.	.	.	1D	cae-	cae-
.	.	.	.	.	.	2B-\	.	-scen-	.	.	.
=67-	=67-	=67-	=67-	=67-	=67-	=67-	=67-	=67-	=67-	=67-	=67-
*	*ij	*ij	*	*	*	*	*	*	*	*	*
1C	de-	de-	2G/	-lis	-lis	1c	.	-dit]	2C/	-l(is)	-lis
*	*	*	*	*ij	*ij	*	*	*	*	*ij	*ij
.	.	.	2G/	De-	de-	.	.	.	2c/	de-	de-
2F\	-ſce(n)-	-ſcen-	2D/	-ſcen-	-ſcen-	2F/	de-	de-	2A/	-ſcen-	-ſcen-
2C/	-dit	-dit	2E/	-dit	-dit	2.G/	-ſcen-	-ſcen-	1c	-dit	-dit
=68-	=68-	=68-	=68-	=68-	=68-	=68-	=68-	=68-	=68-	=68-	=68-
1D	de	de	1F	de	de	.	.	.	.	.	.
.	.	.	.	.	.	4F/	.	.	.	.	.
.	.	.	.	.	.	1F	-dit	-dit	2B-/	de	de
1C	coe-	cae-	1G	cae-	cae-	.	.	.	1c	cae-	cae-
.	.	.	.	.	.	2E/	.	de	.	.	.
=69-	=69-	=69-	=69-	=69-	=69-	=69-	=69-	=69-	=69-	=69-	=69-
!	!	!	!	!	!	!	!	!	!LO:MO:mod=!null:null	!	!
!LO:SIC:s=0FF;	!	!	!LO:SIC:s=0F;	!	!	!	!	!	!LO:N:vis=1	!	!
0FFl	-lis	-lis.	0Fl	-lis	-lis.	2.F/	de	cae-	0c;	-l(is)	-lis.
.	.	.	.	.	.	4G/	c(oe)-	.	.	.	.
!	!	!	!	!	!	!LO:N:vis=0	!	!	!	!	!
.	.	.	.	.	.	1A;<	-lis	-lis.	.	.	.
*	*Xij	*Xij	*	*Xij	*Xij	*	*	*	*	*Xij	*Xij
=70||	=70||	=70||	=70||	=70||	=70||	=70||	=70||	=70||	=70||	=70||	=70||
0FF	Et	Et	0F	ET	Et	0A	Et	Et	0f	Et	Et
=71-	=71-	=71-	=71-	=71-	=71-	=71-	=71-	=71-	=71-	=71-	=71-
1C	in-	in-	1G	in-	in-	1.c	in-	in-	1e	in-	in-
2AA/	-car-	-car-	1A	-car-	-car-	.	.	.	2e\	-car-	-car-
2FF/	-na-	-na-	.	.	.	2c\	-car-	-car-	4f\	-na-	-na-
.	.	.	.	.	.	.	.	.	4e\	.	.
=72-	=72-	=72-	=72-	=72-	=72-	=72-	=72-	=72-	=72-	=72-	=72-
1BB-	-tus	-tus	1B-	-na-	-na-	1d	-na-	-na-	4d\	-tus	.
.	.	.	.	.	.	.	.	.	4c\	.	.
.	.	.	.	.	.	.	.	.	1f	.	.
1C	e(st)	est	1.G	-tus	-tus	1c	-tus	-tus	.	.	.
*	*	*	*	*	*	*	*	*	*custos:d	*	*
.	.	.	.	.	.	.	.	.	2e\	.	-tus
!	!	!	!	!	!	!	!	!	!LO:LB:g=original	!	!
=73-	=73-	=73-	=73-	=73-	=73-	=73-	=73-	=73-	=73-	=73-	=73-
2r	.	.	.	.	.	2B-\	eſt	eſt	1d	eſt	eſt
2D\	de	de	4F/	.	.	4A/	.	.	.	.	.
.	.	.	4E/	.	.	4G/	.	.	.	.	.
1D	ſpi-	Spi-	1F#X	est	est	2A\	.	.	2r	.	.
.	.	.	.	.	.	2A\	de	de	2d\	de	de
=74-	=74-	=74-	=74-	=74-	=74-	=74-	=74-	=74-	=74-	=74-	=74-
2.GG/	-ri-	-ri-	1G	de	de	2.B-\	ſpi-	Spi-	2.d\	sp(i-	Spi-
*	*	*	*	*	*	*custos:d	*	*	*	*	*
4AA/	.	.	.	.	.	4c\	.	.	4c/	-ri-	.
*custos:C	*	*	*	*	*	*	*	*	*	*	*
!	!	!	!	!	!	!LO:LB:g=original	!	!	!	!	!
2BB-/	.	.	1G	spi-	Spi-	2d\	-ri-	.	4B-/	-t)u	.
.	.	.	.	.	.	.	.	.	4A/	.	.
!LO:LB:g=original	!	!	!	!	!	!	!	!	!	!	!
2C/	.	.	.	.	.	4c\	-tu	.	2G/	.	-ri-
.	.	.	.	.	.	4B-\	.	.	.	.	.
=75-	=75-	=75-	=75-	=75-	=75-	=75-	=75-	=75-	=75-	=75-	=75-
2D/	.	.	1D	-ri-	-ri-	2A\	.	.	4F/	.	-tu
.	.	.	.	.	.	.	.	.	4D/	.	.
2BB-/	.	.	.	.	.	2B-\	San-	-ri-	2d\	de	de
2C/	-tu	-tu	2E/	-tu	-tu	2G/	.	-tu	2c/	sp(i-	Spi-
2D/	S(an)-	San-	1F	ſan-	San-	2F/	.	San-	2B-/	-ri-	-ri-
=76-	=76-	=76-	=76-	=76-	=76-	=76-	=76-	=76-	=76-	=76-	=76-
!LO:N:vis=1	!	!	!	!	!	!LO:N:vis=1	!	!	!	!	!
0C;	-cto	-cto	.	.	.	0G;	-cto	-cto	2c/	-t)u	-tu
.	.	.	4E/	.	.	.	.	.	2c/	ſ(an)-	San-
.	.	.	4D/	-cto.	.	.	.	.	.	.	.
*	*	*	*custos:F	*	*	*	*	*	*	*	*
.	.	.	1E;	.	-cto	.	.	.	1c;	-cto	-cto
!	!	!	!LO:LB:g=original	!	!	!	!	!	!	!	!
=77-	=77-	=77-	=77-	=77-	=77-	=77-	=77-	=77-	=77-	=77-	=77-
1BB-	Ex	ex	1F	Ex	ex	1.B-	Ex	ex	1d	Ex	ex
1E-X	Ma-	Ma-	1G	Ma-	Ma-	.	.	.	1e-X	Ma-	Ma-
.	.	.	.	.	.	2c\	Ma-	Ma-	.	.	.
=78-	=78-	=78-	=78-	=78-	=78-	=78-	=78-	=78-	=78-	=78-	=78-
1.D	-ri-	-ri-	1.A	-ri-	-ri-	1d	-ri-	-ri-	1f	-ri-	-ri-
.	.	.	.	.	.	1d	-a	-a	1f	-a	-a
2D\	-a	-a	2A/	-a	-a	.	.	.	.	.	.
=79-	=79-	=79-	=79-	=79-	=79-	=79-	=79-	=79-	=79-	=79-	=79-
1BB-	Vir-	Vir-	1B-	Vir-	Vir-	1.d	Vir-	Vir-	2.f\	vir-	Vir-
.	.	.	.	.	.	.	.	.	4e\	.	.
1BB-	-gi-	-gi-	1B-	-gi-	-gi-	.	.	.	4d\	-gi-	.
.	.	.	.	.	.	.	.	.	4c/	.	.
.	.	.	.	.	.	2d\	-gi-	-gi-	1f	-ne	.
=80-	=80-	=80-	=80-	=80-	=80-	=80-	=80-	=80-	=80-	=80-	=80-
!LO:N:vis=1	!	!	!LO:N:vis=1	!	!	!LO:N:vis=1	!	!	!	!	!
0C;	-ne	-ne	0G;	-ne.	-ne	0c;<	-ne	-ne	.	.	.
.	.	.	.	.	.	.	.	.	4e\	.	-gi-
.	.	.	.	.	.	.	.	.	4d\	.	.
.	.	.	.	.	.	.	.	.	1e;	.	-ne
=81-	=81-	=81-	=81-	=81-	=81-	=81-	=81-	=81-	=81-	=81-	=81-
1GG	Et	et	1G	ET	et	1B-	Et	et	1d	Et	et
1BB-	ho-	ho-	1D	HO-	ho-	2.B-\	ho-	ho-	1d	ho-	ho-
.	.	.	.	.	.	4A/	-mo	.	.	.	.
=82-	=82-	=82-	=82-	=82-	=82-	=82-	=82-	=82-	=82-	=82-	=82-
2C/	-mo	-mo	2E/	-MO.	-mo	2G/	.	-mo	2c/	-mo	-mo
2D/	f(a)c-	fac-	2F/	FAC-	fac-	2F/	f(a)c-	fa-	1f	fac-	fa-
1C	-tus	-tus	1G	-TVS	-tus	1c	-tus	-ctus	.	.	.
.	.	.	.	.	.	.	.	.	2e\	-tus	-ctus
=83-	=83-	=83-	=83-	=83-	=83-	=83-	=83-	=83-	=83-	=83-	=83-
*custos:F	*	*	*	*	*	*	*	*	*	*	*
!	!	!	!	!	!	!LO:MO:mod=!null:null	!	!	!	!	!
!LO:N:vis=1	!	!	!LO:SIC:s=0F;	!	!	!LO:N:vis=1	!	!	!	!	!
0FF;	est	est.	0Fl	eſt	eſt.	0A;	eſt	est.	0f;l	eſt	eſt.
!LO:LB:g=original	!	!	!	!	!	!	!	!	!	!	!
=84||	=84||	=84||	=84||	=84||	=84||	=84||	=84||	=84||	=84||	=84||	=84||
1.F	Cru-	Cru-	0r	.	.	1r	.	.	0r	.	.
.	.	.	.	.	.	1.c	Cru-	Cru-	.	.	.
2E\	-ci-	-ci-	.	.	.	.	.	.	.	.	.
=85-	=85-	=85-	=85-	=85-	=85-	=85-	=85-	=85-	=85-	=85-	=85-
1D	-fi-	-fi-	0r	.	.	.	.	.	1.f	CRu-	Cru-
.	.	.	.	.	.	2B-\	-ci-	-ci-	.	.	.
1C	-xus	-xus	.	.	.	2A/	-fi-	-fi-	.	.	.
.	.	.	.	.	.	2G/	-xus	-xus	2e\	-ci-	-ci-
=86-	=86-	=86-	=86-	=86-	=86-	=86-	=86-	=86-	=86-	=86-	=86-
2BB-/	e-	e-	1F	Or-	Or-	2B-\	e-	e-	1d	-fi-	-fi-
2BB-/	-ti-	-ti-	.	.	.	2B-\	-ti-	-ti-	.	.	.
2F\	-am	-am	1F	-to	-to	2A\	-am	-am	2c/	-xus	-xus
2D\	pro	pro	.	.	.	1F	p(ro)	pro	2B-/	e-	e-
=87-	=87-	=87-	=87-	=87-	=87-	=87-	=87-	=87-	=87-	=87-	=87-
1C	no-	no-	1G	De-	De-	.	.	.	1c	-ti-	-ti-
.	.	.	.	.	.	2E/	no-	no-	.	.	.
2FF/	-b(is)	-bis	1A	-i	-i	2F/	-bis	-bis	2c/	-am	-am
2F\	ſub	ſub	.	.	.	2A\	ſub	ſub	2f\	p(ro)	pro
=88-	=88-	=88-	=88-	=88-	=88-	=88-	=88-	=88-	=88-	=88-	=88-
2.G\	Pon-	Pon-	1B-	Fi-	Fi-	2d\	Pon-	Pon-	1d	no-	no-
.	.	.	.	.	.	2B-\	-ti-	-ti-	.	.	.
4G\	-ti-	-ti-	.	.	.	.	.	.	.	.	.
2E-X\	-o	-o	1G	-li-	-li-	4c\	-o	-o	1e-X	-bis	-bis
.	.	.	.	.	.	4B-\	.	.	.	.	.
2E-\	Pi-	Pi-	.	.	.	1B-	Pi-	Pi-	.	.	.
=89-	=89-	=89-	=89-	=89-	=89-	=89-	=89-	=89-	=89-	=89-	=89-
1F	-la-	-la-	0F	-o	-o	.	.	.	1c	ſub	ſub
.	.	.	.	.	.	2A\	-la-	-la-	.	.	.
1BB-	-to	-to	.	.	.	2B-\	-to	-to	2.d\	Pon-	Pon-
*	*	*	*	*	*	*	*ij	*ij	*	*	*
.	.	.	.	.	.	2D/	ſub	ſub	.	.	.
.	.	.	.	.	.	.	.	.	4d\	-ti-	-ti-
=90-	=90-	=90-	=90-	=90-	=90-	=90-	=90-	=90-	=90-	=90-	=90-
2r	.	.	1G	Vir-	Vir-	2E-X/	Pon-	Pon-	2B-/	-o	-o
*	*	*	*	*	*	*	*	*	*custos:c	*	*
2GG/	paſ-	paſ-	.	.	.	4D/	-ti-	-ti-	2B-/	pi-	Pi-
*	*	*	*	*	*	*custos:E	*	*	*	*	*
.	.	.	.	.	.	4D/	-o	-o	.	.	.
!	!	!	!	!	!	!	!	!	!LO:LB:g=original	!	!
!	!	!	!	!	!	!LO:LB:g=original	!	!	!	!	!
!	!	!	!	!	!	!LO:SIC:s=2Ei	!	!	!	!	!
2C/	-sus	-sus	1G	-gi-	-gi-	2E-/	Pi-	Pi-	1c	-la-	-la-
!	!	!	!	!	!	!LO:SIC:s=2Ei	!	!	!	!	!
2C/	et	et	.	.	.	2E-/	-la-	-la-	.	.	.
=91-	=91-	=91-	=91-	=91-	=91-	=91-	=91-	=91-	=91-	=91-	=91-
2D/	ſe-	ſe-	1D	-ne	-ne	2F/	-to	-to	2A/	-to	-to
*	*	*	*	*	*	*	*Xij	*Xij	*	*	*
2BB-/	-pul-	-pul-	.	.	.	2F/	paſ-	paſ-	2B-/	paſ-	paſ-
1C	-tus	-tus	1E	de	de	2c\	-sus	-sus	2G/	-sus	-sus
.	.	.	.	.	.	2c\	et	et	2A/	et	et
=92-	=92-	=92-	=92-	=92-	=92-	=92-	=92-	=92-	=92-	=92-	=92-
1BB-	eſt	eſt.	0F	pu-	pu-	2d\	ſe-	ſe-	2B-/	ſe-	ſe-
.	.	.	.	.	.	2B-\	-pul-	-pul-	1B-	-pul-	-pul-
2r	.	.	.	.	.	1c	-tus	-tus	.	.	.
2FF/	et	Et	.	.	.	.	.	.	2A/	-tus	-tus
=93-	=93-	=93-	=93-	=93-	=93-	=93-	=93-	=93-	=93-	=93-	=93-
2.BB-/	re-	re-	0F	-ra	-ra	2d\	e(st)	est.	1B-	eſt,	est.
.	.	.	.	.	.	2d\	e(t)	Et	.	.	.
4C/	.	.	.	.	.	.	.	.	.	.	.
4D/	.	.	.	.	.	2d\	re-	re-	2r	.	.
4E/	.	.	.	.	.	.	.	.	.	.	.
!LO:TX:t=P:problem=tekst zaklejony	!	!	!	!	!	!	!	!	!	!	!
2F\	-ſ-	.	.	.	.	2c\	-ſur-	-ſur-	2F/	et	Et
=94-	=94-	=94-	=94-	=94-	=94-	=94-	=94-	=94-	=94-	=94-	=94-
2.BB-/	.	[sur-	1F	Vt	ut	2d\	-re-	-re-	2.B-/	re-	re-
.	.	.	.	.	.	2d\	-xit	-xit	.	.	.
4AA/	.	.	.	.	.	.	.	.	4c\	.	.
4BB-/	.	.	1F	ro-	ro-	2d\	ter-	ter-	4d\	-ſur-	-ſur-
4C/	.	.	.	.	.	.	.	.	4e\	-re-	.
2D/	.	.	.	.	.	2B-\	-ci-	-ti-	1f	-xit	-re-
=95-	=95-	=95-	=95-	=95-	=95-	=95-	=95-	=95-	=95-	=95-	=95-
*	*	*	*custos:A	*	*	*	*	*	*	*	*
1C	.	-re]-	1G	-sa	-sa	1c	-a	-a	.	.	.
.	.	.	.	.	.	.	.	.	2e\	.	-xit
!	!	!	!LO:LB:g=original	!	!	!	!	!	!	!	!
2F\	-xit	-xit	1A	Vel	vel	2c\	di-	di-	2f\	ter-	ter-
*	*	*	*	*	*	*custos:F	*	*	*	*	*
2D\	ter-	ter-	.	.	.	2F/	-e	-e	2f\	.	-ti-
!	!	!	!	!	!	!LO:LB:g=original	!	!	!	!	!
=96-	=96-	=96-	=96-	=96-	=96-	=96-	=96-	=96-	=96-	=96-	=96-
2BB-/	-ci-	-ti-	1B-	li-	li-	2r	.	.	2d\	-ti-	-a
2BB-/	-a	-a	.	.	.	2F/	ſe-	ſe-	2d\	-a	di-
1C	di-	di-	1G	-li-	-li-	2F/	-cun-	-cun-	1c	di-	-e
.	.	.	.	.	.	2E/	-du(m)	-dum	.	.	.
=97-	=97-	=97-	=97-	=97-	=97-	=97-	=97-	=97-	=97-	=97-	=97-
2D/	-e	-e	0F	-um	-um	2.D/	ſcri-	Scri-	2A/	-e	se-
*custos:BB-	*	*	*	*	*	*	*	*	*custos:d	*	*
2BB-/	ſe-	ſe-	.	.	.	.	.	.	2B-/	ſe-	.
.	.	.	.	.	.	4E/	.	.	.	.	.
!LO:LB:g=original	!	!	!	!	!	!	!	!	!LO:LB:g=original	!	!
2BB-/	-cun-	-cun-	.	.	.	4F/	-ptu-	.	2d\	-cun-	-cun-
.	.	.	.	.	.	4G/	.	.	.	.	.
2AA/	-dum	-dum	.	.	.	2A/	-ras	.	2c/	-d(um)	.
=98-	=98-	=98-	=98-	=98-	=98-	=98-	=98-	=98-	=98-	=98-	=98-
*	*	*	*	*	*	*lig	*	*	*	*	*
1GG	ſcrip-	Scrip-	1G	stu-	stu-	1D	.	-tu-	4B-/	.	-dum
.	.	.	.	.	.	.	.	.	4c/	.	.
.	.	.	.	.	.	.	.	.	4d/	.	.
.	.	.	.	.	.	.	.	.	4B-/	ſcrip-	.
1C	-tu-	-tu-	1G	-pe-	-pe-	1E	.	.	1c	-tu-	Scrip-
*	*	*	*	*	*	*Xlig	*	*	*	*	*
=99-	=99-	=99-	=99-	=99-	=99-	=99-	=99-	=99-	=99-	=99-	=99-
2BB-/	-ras	-ras.	1D	-ſcit	-ſcit	2F/	.	-ras.	2d\	-ras,	-tu-
2GG/	Et	Et	.	.	.	1G	et	Et	2B-/	.	.
2C/	a-	a-	1E	na-	na-	.	.	.	1c	.	-ras.
2C/	-ſcen-	-ſcen-	.	.	.	2c\	a-	a-	.	.	.
=100-	=100-	=100-	=100-	=100-	=100-	=100-	=100-	=100-	=100-	=100-	=100-
2.D\	-dit	-dit	0F	-tu-	-tu-	2A\	-ſcen-	-ſcen-	2r	.	.
.	.	.	.	.	.	2.A\	-dit	-dit	2F/	et	Et
4E\	.	.	.	.	.	.	.	.	.	.	.
4F\	in	in	.	.	.	.	.	.	2c/	a-	a-
4E\	.	.	.	.	.	4G/	.	.	.	.	.
4D\	.	.	.	.	.	4F/	.	.	2c/	-ſcen-	-ſcen-
4C\	.	.	.	.	.	4E/	.	.	.	.	.
=101-	=101-	=101-	=101-	=101-	=101-	=101-	=101-	=101-	=101-	=101-	=101-
2BB-/	.	.	0F	-ra.	-ra	4F/	.	.	2d\	-dit	-dit
.	.	.	.	.	.	4D/	.	.	.	.	.
2AA/	.	.	.	.	.	1A	in	in	1c	in	in
1D	c(oe)-	cae-	.	.	.	.	.	.	.	.	.
!	!	!	!	!	!	!	!	!	!LO:SIC:s=2Bi	!	!
.	.	.	.	.	.	4G/	c(oe)-	cae-	2B-/	.	.
.	.	.	.	.	.	4F/	.	.	.	.	.
=102-	=102-	=102-	=102-	=102-	=102-	=102-	=102-	=102-	=102-	=102-	=102-
2C/	-lum	-lum	1c	QVem	quem	2G/	-lu(m)	-lum	4c/	Coe-	cae-
.	.	.	.	.	.	.	.	.	4B-/	.	.
1F	ſe-	ſe-	.	.	.	1A	ſe-	se-	4A/	.	.
.	.	.	.	.	.	.	.	.	4G/	-lum.	.
.	.	.	1c	pa-	pa-	.	.	.	2F/	.	-lum
*	*	*	*	*	*	*custos:B-	*	*	*	*	*
2F\	-det	-det	.	.	.	2A/	-det	-det	1f	ſe-	se-
!	!	!	!	!	!	!LO:LB:g=original	!	!	!	!	!
=103-	=103-	=103-	=103-	=103-	=103-	=103-	=103-	=103-	=103-	=103-	=103-
4BB-/	ad	ad	1d	-rit	-rit	1B-	ad	ad	.	.	.
4C/	.	.	.	.	.	.	.	.	.	.	.
4D/	.	.	.	.	.	.	.	.	2f\	-det	-det
4E/	.	.	.	.	.	.	.	.	.	.	.
2F\	.	.	1c	Ju-	ju-	2A/	dex-	dex-	2f\	ad	ad
*custos:F	*	*	*	*	*	*	*	*	*	*	*
2C/	dex-	dex-	.	.	.	2G/	-te-	-te-	2e\	dex-	dex-
!LO:LB:g=original	!	!	!	!	!	!	!	!	!	!	!
=104-	=104-	=104-	=104-	=104-	=104-	=104-	=104-	=104-	=104-	=104-	=104-
2F\	-te-	-te-	1A	-uen-	-ven-	2A/	-ram	-ram	4f\	.	-te-
.	.	.	.	.	.	.	.	.	4e\	-te-	.
2A\	-ram	-ram	.	.	.	2c\	p(at)-	Pa-	4d\	-ra(m).	-ram
*	*	*	*	*	*	*	*	*	*custos:d	*	*
.	.	.	.	.	.	.	.	.	4c/	.	.
!	!	!	!LO:SIC:s=1Bi	!	!	!LO:SIC:s=2Bi	!	!	!LO:LB:g=original	!	!
1G	p(at)-	Pa-	1B-	-cu-	-cu-	2B-\	-r(is)	-tris.	1d	pa-	Pa-
.	.	.	.	.	.	1G	et	Et	.	.	.
=105-	=105-	=105-	=105-	=105-	=105-	=105-	=105-	=105-	=105-	=105-	=105-
1C	-ris	-tris.	0c	-la	-la	.	.	.	2.e\	-tris	.
.	.	.	.	.	.	2G/	i-	i-	.	.	.
.	.	.	.	.	.	.	.	.	4f\	.	.
1.C	Et	Et	.	.	.	2E/	-te-	-te-	4g\	.	.
.	.	.	.	.	.	.	.	.	4f\	.	.
.	.	.	.	.	.	2C/	-ru(m)	-rum	4e\	.	.
.	.	.	.	.	.	.	.	.	4d\	.	.
=106-	=106-	=106-	=106-	=106-	=106-	=106-	=106-	=106-	=106-	=106-	=106-
.	.	.	1c	Na-	na-	1G	ven-	ven-	1e	.	-tris.
2C/	i-	i-	.	.	.	.	.	.	.	.	.
2AA/	-te-	-te-	1c	-tum	-tum	2A/	-tu-	-tu-	2r	.	.
2FF/	-rum	-rum	.	.	.	2A/	-rus	-rus	1f	et	Et
=107-	=107-	=107-	=107-	=107-	=107-	=107-	=107-	=107-	=107-	=107-	=107-
1BB-	ven-	ven-	1d	an-	an-	2F/	eſt	eſt	.	.	.
.	.	.	.	.	.	2B-\	cum	cum	2f\	i-	i-
1C	-tu-	-tu-	1c	-te	-te	2G/	glo-	glo-	2e\	-te-	-te-
.	.	.	.	.	.	2.A/	.	.	2c/	-rum	-rum
=108-	=108-	=108-	=108-	=108-	=108-	=108-	=108-	=108-	=108-	=108-	=108-
2.D/	-rus	-rus	1A	ſe-	sae-	.	.	.	2f\	ven-	ven-
.	.	.	.	.	.	4G/	.	.	.	.	.
.	.	.	.	.	.	1F	.	.	2d\	-tu-	-tu-
4C/	.	.	.	.	.	.	.	.	.	.	.
2BB-/	eſt	eſt	1G	-cu-	-cu-	.	.	.	2d\	-rus	-rus
2C/	cum	.	.	.	.	2E/	-ri-	-ri-	2c/	eſt	eſt
=109-	=109-	=109-	=109-	=109-	=109-	=109-	=109-	=109-	=109-	=109-	=109-
2D/	glo-	cum	0F	-la	-la	2F/	-a	-a	2A/	cum	cum
2.BB-/	-ri-	glo-	.	.	.	2.D/	iu-	ju-	1B-	.	glo-
4C/	.	.	.	.	.	4E/	.	.	.	.	.
4D/	.	-ri-	.	.	.	4F/	.	.	4A/	glo-	-ri-
*	*	*	*	*	*	*custos:A	*	*	*	*	*
4E/	.	.	.	.	.	4G/	.	.	4G/	.	.
!	!	!	!	!	!	!LO:LB:g=original	!	!	!	!	!
=110-	=110-	=110-	=110-	=110-	=110-	=110-	=110-	=110-	=110-	=110-	=110-
2F\	-a	-a	1D	cre-	cre-	2A\	.	.	4F/	-ri-	-a
.	.	.	.	.	.	.	.	.	4D/	-a	.
*custos:C	*	*	*	*	*	*	*	*	*	*	*
2BB-/	iu-	ju-	.	.	.	2B-\	-di-	-di-	2d\	Ju-	ju-
!LO:LB:g=original	!	!	!	!	!	!	!	!	!	!	!
2C/	-di-	-di-	1E	-a-	-a-	2.G/	-ca-	-ca-	4c\	.	-di-
.	.	.	.	.	.	.	.	.	4d\	-di-	.
2C/	-ca-	-ca-	.	.	.	.	.	.	4e\	.	.
.	.	.	.	.	.	4A/	.	.	4c\	-ca-	.
=111-	=111-	=111-	=111-	=111-	=111-	=111-	=111-	=111-	=111-	=111-	=111-
2BB-/	-re	-re	1F	-to-	-to-	2B-\	.	.	4d\	.	-ca-
.	.	.	.	.	.	.	.	.	4c\	.	.
2FF/	vi-	vi-	.	.	.	2A\	.	.	1c	.	.
1GG	-uos	-vos	1D	-rem	-rem	1G	.	.	.	.	.
*	*	*	*	*	*	*	*	*	*custos:c	*	*
!	!	!	!	!	!	!	!	!	!LO:SIC:s=2Bi	!	!
.	.	.	.	.	.	.	.	.	2B-/	.	.
!	!	!	!	!	!	!	!	!	!LO:LB:g=original	!	!
=112-	=112-	=112-	=112-	=112-	=112-	=112-	=112-	=112-	=112-	=112-	=112-
2AA/	et	et	0C	re-	re-	2E/	-re	-re	2c/	-re	-re
2FF/	mor-	mor-	.	.	.	1F	Vi-	vi-	2F/	vi-	vi-
1C	-tu-	-tu-	.	.	.	.	.	.	1G	-uos	-vos
.	.	.	.	.	.	2E/	-uos	-vos	.	.	.
=113-	=113-	=113-	=113-	=113-	=113-	=113-	=113-	=113-	=113-	=113-	=113-
1FF	-os	-os	0C	-r(um)	-rum	2F/	et	et	2A/	et	et
.	.	.	.	.	.	2A/	mor-	mor-	1F	mor-	mor-
2r	.	.	.	.	.	2.G/	.	.	.	.	.
2C/	cu-	cu-	.	.	.	.	.	.	2E/	-tu-	-tu-
.	.	.	.	.	.	4A/	-tu-	-tu-	.	.	.
=114-	=114-	=114-	=114-	=114-	=114-	=114-	=114-	=114-	=114-	=114-	=114-
1D	-ius	-jus	1F	quod	quod	2B-\	-os	-os	2F/	-os.	-os
.	.	.	.	.	.	2A\	cu-	cu-	1f	Cu-	cu-
2BB-/	re-	re-	1F	v-	u-	2B-\	-ius	-jus	.	.	.
2BB-/	-gni	-gni	.	.	.	1B-	re-	re-	2d\	-ius	-jus
=115-	=115-	=115-	=115-	=115-	=115-	=115-	=115-	=115-	=115-	=115-	=115-
!LO:SIC:s=1E-i	!	!	!	!	!	!	!	!	!	!	!
1E	non	non	1G	-ber	-ber	.	.	.	1g	re-	re-
.	.	.	.	.	.	2c\	-gni	-gni	.	.	.
*	*	*	*custos:B-	*	*	*	*	*	*	*	*
1D	e-	e-	1A	mun-	mun-	2d\	non	non	2f\	-gni	-gni
.	.	.	.	.	.	2d\	e-	e-	2f\	non	non
!	!	!	!LO:LB:g=original	!	!	!	!	!	!	!	!
=116-	=116-	=116-	=116-	=116-	=116-	=116-	=116-	=116-	=116-	=116-	=116-
*	*	*	*	*	*	*custos:c	*	*	*	*	*
1BB-	-rit	-rit	1B-	-di-	-di-	1d	-rit	-rit	2f\	e-	e-
.	.	.	.	.	.	.	.	.	2f\	-rit	-rit
!	!	!	!	!	!	!LO:LB:g=original	!	!	!	!	!
2C/	fi-	fi-	1G	-ti-	-ti-	2c\	fi-	fi-	2e\	fi-	fi-
2C/	-nis	-nis.	.	.	.	2c\	-nis	-nis.	2e\	-nis.	-nis.
=117-	=117-	=117-	=117-	=117-	=117-	=117-	=117-	=117-	=117-	=117-	=117-
*	*	*	*lig	*	*	*	*	*	*	*	*
2r	.	.	1F	-ae,	-ae	2r	.	.	2r	.	.
*custos:F	*	*	*	*	*	*	*	*	*	*	*
2F\	Et	Et	.	.	.	2c\	Et	Et	2f\	Et	Et
!LO:LB:g=original	!	!	!	!	!	!	!	!	!	!	!
2F\	in	in	1A	.	.	2c\	in	in	2f\	in	in
2F\	Spi-	Spi-	.	.	.	2c\	ſpi-	Spi-	2f\	Spi-	Spi-
*	*	*	*Xlig	*	*	*	*	*	*	*	*
=118-	=118-	=118-	=118-	=118-	=118-	=118-	=118-	=118-	=118-	=118-	=118-
1C	-ri-	-ri-	1G	dac	dat	1c	-ri-	-ri-	1e	-ri-	-ri-
2C/	-tum	-tum	1G	lac	lac	2c\	-tu(m)	-tum	2e\	-t(um)	-tum
2C/	ſ(an)c-	San-	.	.	.	2c\	ſanc-	San-	2e\	ſ(an)c-	San-
=119-	=119-	=119-	=119-	=119-	=119-	=119-	=119-	=119-	=119-	=119-	=119-
1BB-	-t(u)m	-ctum	1D	pu-	pu-	4d\	-tu(m)	-ctum	2f\	-tum	-ctum
.	.	.	.	.	.	4c\	.	.	.	.	.
*	*	*	*	*	*	*	*	*	*custos:c	*	*
.	.	.	.	.	.	4B-\	.	.	2d\	do-	Do-
.	.	.	.	.	.	4A\	.	.	.	.	.
!	!	!	!	!	!	!	!	!	!LO:LB:g=original	!	!
2C/	do-	Do-	1E	-di-	-di-	1G	.	.	2c/	-mi-	-mi-
2C/	-mi-	-mi-	.	.	.	.	.	.	2c/	-nu(m)	-num
=120-	=120-	=120-	=120-	=120-	=120-	=120-	=120-	=120-	=120-	=120-	=120-
2FF/	-(num)	-num	1F	-ti-	-ti-	1A	do-	Do-	2r	.	.
2FF/	et	et	.	.	.	.	.	.	1c	et	et
1GG	vi-	vi-	1D	-ti-	-ti-	1G	-mi-	-mi-	.	.	.
.	.	.	.	.	.	.	.	.	2B-/	vi-	vi-
=121-	=121-	=121-	=121-	=121-	=121-	=121-	=121-	=121-	=121-	=121-	=121-
2AA/	-ui-	-vi-	0C	-a	-ae	2E/	-nu(m)	-num	2c/	-ui-	-vi-
2FF/	-fi-	-fi-	.	.	.	1F	et	et	2A/	-fi-	-fi-
1C	-can-	-can-	.	.	.	.	.	.	2.G/	-can-	-can-
.	.	.	.	.	.	2E/	Vi-	vi-	.	.	.
.	.	.	.	.	.	.	.	.	4A/	-tem	.
=122-	=122-	=122-	=122-	=122-	=122-	=122-	=122-	=122-	=122-	=122-	=122-
2BB-/	-te(m)	-tem	1D	an-	an-	2F/	-ui-	-vi-	2B-/	.	.
*	*ij	*ij	*	*	*	*	*	*	*	*	*
1F	et	et	.	.	.	2D/	-fi-	-fi-	4A/	.	.
.	.	.	.	.	.	.	.	.	4B-/	.	.
.	.	.	1C	-ti-	-ti-	1G	-can-	-can-	2c/	.	-tem
2E\	vi-	vi-	.	.	.	.	.	.	2c/	qui	qui
=123-	=123-	=123-	=123-	=123-	=123-	=123-	=123-	=123-	=123-	=123-	=123-
*	*	*	*	*	*	*custos:c	*	*	*	*	*
2F\	-ui-	-vi-	1D	-quo	-quo	1F	-tem	-tem	2A/	ex	ex
2BB-/	-fi-	-fi-	.	.	.	.	.	.	2B-/	pa-	Pa-
*custos:FF	*	*	*	*	*	*	*	*	*	*	*
!	!	!	!	!	!	!LO:LB:g=original	!	!	!	!	!
1C	-can-	-can-	1E	di-	di-	2r	.	.	1G	-tre	-tre
.	.	.	.	.	.	1c	qui	qui	.	.	.
!LO:LB:g=original	!	!	!	!	!	!	!	!	!	!	!
=124-	=124-	=124-	=124-	=124-	=124-	=124-	=124-	=124-	=124-	=124-	=124-
*	*	*	*lig	*	*	*	*	*	*	*	*
!	!	!	!LO:TX:a:t=2:mod=	!	!	!	!	!	!	!	!
2FF/	-te(m)	-tem	0F	-e-	-e-	.	.	.	2A/	fi-	Fi-
*	*Xij	*Xij	*	*	*	*	*	*	*	*	*
2BB-/	qui	qui	.	.	.	2d\	ex	ex	4B-/	-li-	-li-
.	.	.	.	.	.	.	.	.	4c/	-o-	.
2BB-/	ex	ex	.	.	.	2B-\	p(at)-	Pa-	4d\	.	-o-
.	.	.	.	.	.	.	.	.	4e\	.	.
2D/	p(at)-	Pa-	.	.	.	2A\	-re	-tre	4f\	.	.
.	.	.	.	.	.	.	.	.	4d\	-q(ue)	.
=125-	=125-	=125-	=125-	=125-	=125-	=125-	=125-	=125-	=125-	=125-	=125-
!	!	!	!LO:TX:a:t=2:mod=	!	!	!	!	!	!	!	!
2C/	-re	-tre	0G	.	.	2c\	fi-	Fi-	2e\	.	-que
2BB-/	fi-	Fi-	.	.	.	2d\	-li-	-li-	1f	pro-	pro-
1C	-li-	-li-	.	.	.	1c	-o-	-o-	.	.	.
.	.	.	.	.	.	.	.	.	2e\	-ce-	-ce-
*	*	*	*Xlig	*	*	*	*	*	*	*	*
=126-	=126-	=126-	=126-	=126-	=126-	=126-	=126-	=126-	=126-	=126-	=126-
*	*	*	*	*	*	*	*	*	*custos:c	*	*
2.D\	-o-	-o-	0F	-r(um).	-rum.	2B-\	-q(ue)	-que	1f	-dit	-dit
.	.	.	.	.	.	2.A\	pro-	pro-	.	.	.
4E\	.	.	.	.	.	.	.	.	.	.	.
!	!	!	!	!	!	!	!	!	!LO:LB:g=original	!	!
2F\	-q(ue)	-que	.	.	.	.	.	.	2c/	pro-	pro-
.	.	.	.	.	.	4G/	.	.	.	.	.
2BB-/	pro-	pro-	.	.	.	1F	-ce-	.	4B-/	-ce-	.
.	.	.	.	.	.	.	.	.	4A/	.	.
=127-	=127-	=127-	=127-	=127-	=127-	=127-	=127-	=127-	=127-	=127-	=127-
1C	-ce-	-ce-	1r	.	.	.	.	.	1G	-dit.	-ce-
.	.	.	.	.	.	2E/	.	-ce-	.	.	.
1FF	-dit	-dit.	2r	.	.	0F	-dit	-dit.	0.A	.	-dit.
.	.	.	1c	Qui	Qui	.	.	.	.	.	.
=128-	=128-	=128-	=128-	=128-	=128-	=128-	=128-	=128-	=128-	=128-	=128-
2r	.	.	.	.	.	.	.	.	.	.	.
*	*	*	*custos:d	*	*	*	*	*	*	*	*
1F	qui	Qui	2c\	cum	cum	.	.	.	.	.	.
!	!	!	!LO:LB:g=original	!	!	!	!	!	!	!	!
.	.	.	2d\	pa-	Pa-	1r	.	.	.	.	.
2F\	cum	cum	2c\	-tre	-tre	.	.	.	.	.	.
=129-	=129-	=129-	=129-	=129-	=129-	=129-	=129-	=129-	=129-	=129-	=129-
2G\	p(at)-	Pa-	2B-\	e(t)	et	2r	.	.	1r	.	.
2F\	-re	-tre	2A/	fi-	Fi-	1c	qui	Qui	.	.	.
2E\	et	et	2G/	-li-	-li-	.	.	.	2r	.	.
2F\	fi-	Fi-	2A/	-o,	-o	2c\	cum	cum	1f	Qui	Qui
=130-	=130-	=130-	=130-	=130-	=130-	=130-	=130-	=130-	=130-	=130-	=130-
*custos:BB-	*	*	*	*	*	*	*	*	*	*	*
1D	-li-	-li-	2A/	cum	cum	2d\	p(at)-	Pa-	.	.	.
.	.	.	2F/	pa-	Pa-	2A\	-re	-tre	2f\	cum	cum
!LO:LB:g=original	!	!	!	!	!	!	!	!	!	!	!
1BB-	-o	-o	4D/	-tre	-tre	2B-\	e(t)	et	2g\	p(at)-	Pa-
.	.	.	4E/	.	.	.	.	.	.	.	.
.	.	.	4F/	.	.	2.d\	fi-	Fi-	2f\	-re	-tre
.	.	.	4G/	.	.	.	.	.	.	.	.
=131-	=131-	=131-	=131-	=131-	=131-	=131-	=131-	=131-	=131-	=131-	=131-
0r	.	.	2A/	et	et	.	.	.	2e\	et	et
.	.	.	.	.	.	4c\	-li-	.	.	.	.
.	.	.	2F/	fi-	Fi-	1c	-o	.	2f\	fi-	Fi-
.	.	.	1G	-li-	-li-	.	.	.	1d	-li-	-li-
*	*	*	*	*	*	*custos:c	*	*	*	*	*
!	!	!	!	!	!	!LO:SIC:s=2Bi	!	!	!	!	!
.	.	.	.	.	.	2B-\	.	-li-	.	.	.
!	!	!	!	!	!	!LO:LB:g=original	!	!	!	!	!
=132-	=132-	=132-	=132-	=132-	=132-	=132-	=132-	=132-	=132-	=132-	=132-
1.C	ſi-	ſi-	2C/	-o	-o	2c\	ſi-	-o	2c/	-o	-o
.	.	.	1G	Si-	si-	1c	-mul	si-	1e	ſi-	ſi-
2C/	-mul	-mul	2G/	-mul	-mul	2c\	a-	-mul	2e\	-mul	-mul
=133-	=133-	=133-	=133-	=133-	=133-	=133-	=133-	=133-	=133-	=133-	=133-
*	*	*	*custos:B-	*	*	*	*	*	*	*	*
1BB-	a-	a-	1B-	a-	a-	1d	-do-	a-	1f	a-	a-
!	!	!	!LO:LB:g=original	!	!	!	!	!	!	!	!
2BB-/	-do-	-do-	2B-\	-do-	-do-	2d\	-ra-	-do-	2f\	-do-	-do-
2C/	-ra-	-ra-	2G/	-ra-	-ra-	2c\	-tur	-ra-	2e\	-ra-	-ra-
=134-	=134-	=134-	=134-	=134-	=134-	=134-	=134-	=134-	=134-	=134-	=134-
2FF/	-t(ur)	-tur	2F/	-tur	-tur	2A\	et	-tur	2c/	-tur,	-tur,
1C	et	et	2G/	et	et	1c	con-	et	2e\	et	et
.	.	.	2G/	con-	con-	.	.	.	2e\	con-	con-
2GG/	con-	con-	2G/	-glo-	-glo-	2.B-\	.	con-	2d\	-glo-	-glo-
=135-	=135-	=135-	=135-	=135-	=135-	=135-	=135-	=135-	=135-	=135-	=135-
2BB-/	-glo-	-glo-	2F/	-ri-	-ri-	.	.	.	2d\	-ri-	-ri-
.	.	.	.	.	.	4A/	-glo-	.	.	.	.
2C/	-ri-	-ri-	2E/	-fi-	-fi-	4G/	-ri-	.	1c	-fi-	-fi-
.	.	.	.	.	.	4F/	-fi-	.	.	.	.
1GG	-fi-	-fi-	1D	-ca-	-ca-	1.G	-ca-	-glo-	.	.	.
!	!	!	!	!	!	!	!	!	!LO:SIC:s=2Bi	!	!
.	.	.	.	.	.	.	.	.	2B-/	-ca-	-ca-
=136-	=136-	=136-	=136-	=136-	=136-	=136-	=136-	=136-	=136-	=136-	=136-
*	*	*	*	*	*	*	*	*	*custos:c	*	*
!LO:TX:t=P:problem=poprawka wysokości	!	!	!	!	!	!	!	!	!	!	!
2AA/	-ca-	-ca-	2C/	-tur	-tur	.	.	.	0.c	-t(ur)	-tur
2FF/	-tur	-tur	1F	qui	qui	1A	-tur	-ri-	.	.	.
1r	.	.	.	.	.	.	.	.	.	.	.
.	.	.	2E/	lo-	lo-	2G/	.	-fi-	.	.	.
!	!	!	!	!	!	!	!	!	!LO:LB:g=original	!	!
=137-	=137-	=137-	=137-	=137-	=137-	=137-	=137-	=137-	=137-	=137-	=137-
2r	.	.	2F/	-cu-	-cu-	2A/	.	-ca-	.	.	.
1C	qui	qui	2C/	-tus	-tus	2G/	.	-tur	.	.	.
.	.	.	1D	eſt	eſt	2r	.	.	1r	.	.
2BB-/	lo-	lo-	.	.	.	1F	qui	qui	.	.	.
=138-	=138-	=138-	=138-	=138-	=138-	=138-	=138-	=138-	=138-	=138-	=138-
1C	-cu-	-cu-	1G	per	per	.	.	.	2r	.	.
.	.	.	.	.	.	2E/	lo-	lo-	1c	qui	qui
2FF/	-tus	-tus	2A/	pro-	Pro-	2F/	-cu-	-cu-	.	.	.
*custos:AA	*	*	*	*	*	*custos:C	*	*	*	*	*
2GG/	eſt	eſt	4G/	.	.	2D/	-tus	-tus	2B-/	lo-	lo-
.	.	.	4F/	.	.	.	.	.	.	.	.
!LO:LB:g=original	!	!	!	!	!	!LO:LB:g=original	!	!	!	!	!
=139-	=139-	=139-	=139-	=139-	=139-	=139-	=139-	=139-	=139-	=139-	=139-
2AA/	per	per	1.E	-phe-	-phe-	2C/	eſt	eſt	2c/	-cu-	-cu-
2C/	pro-	Pro-	.	.	.	1c	per	per	2G/	-tus	-tus
2C/	-phe-	-phe-	.	.	.	.	.	.	2A/	eſt	eſt
2GG/	-t(as)	-tas	2D/	.	.	2B-\	pro-	Pro-	2.G/	per	per
=140-	=140-	=140-	=140-	=140-	=140-	=140-	=140-	=140-	=140-	=140-	=140-
*	*	*	*custos:c	*	*	*	*	*	*	*	*
*	*	*	*	*	*	*lig	*	*	*	*	*
2AA/	p(er)	per	1C	-tas	-tas.	1A	-phe-	-phe-	.	.	.
.	.	.	.	.	.	.	.	.	4F/	.	.
2FF/	(pro)-	Pro-	.	.	.	.	.	.	1F	pro-	Pro-
!	!	!	!LO:LB:g=original	!	!	!	!	!	!	!	!
1C	-phe-	-phe-	2r	.	.	1G	.	.	.	.	.
.	.	.	2c\	Et	Et	.	.	.	2E/	-phe-	-phe-
*	*	*	*	*	*	*Xlig	*	*	*	*	*
=141-	=141-	=141-	=141-	=141-	=141-	=141-	=141-	=141-	=141-	=141-	=141-
2FF/	-tas	-tas.	2c\	v-	u-	1A	-tas	-tas.	1F	-tas.	-tas.
2F\	Et	Et	2c\	-nam	-nam	.	.	.	.	.	.
2F\	v-	u-	1A	ſanc-	ſan-	1r	.	.	2r	.	.
2F\	-nam	-nam	.	.	.	.	.	.	2f\	Et	Et
=142-	=142-	=142-	=142-	=142-	=142-	=142-	=142-	=142-	=142-	=142-	=142-
1D	ſanc-	ſan-	2F/	-t(am)	-ctam	2r	.	.	2f\	u-	u-
.	.	.	2A/	ca-	ca-	2F/	Et	Et	2f\	-nam	-nam
2BB-/	-ta(m)	-ctam	2B-/	-to-	-tho-	2F/	V-	u-	1d	ſanc-	ſan-
2D/	ca-	ca-	2A/	-li-	-li-	2F/	-nam	-nam	.	.	.
=143-	=143-	=143-	=143-	=143-	=143-	=143-	=143-	=143-	=143-	=143-	=143-
!LO:SIC:s=2E-i	!	!	!	!	!	!	!	!	!LO:TX:t=P:problem=poprawka wysokości	!	!
2E\	-tho-	-tho-	2G/	-cam	-cam	2G/	S(an)c-	san-	2B-/	-tam	-ctam
*	*	*	*	*ij	*ij	*	*	*	*	*	*
4D/	.	.	1F	ca-	ca-	2A/	-tam	-ctam	2.d\	ca-	ca-
4C/	.	.	.	.	.	.	.	.	.	.	.
2BB-/	.	.	.	.	.	2B-/	Ca-	ca-	.	.	.
.	.	.	.	.	.	.	.	.	4c/	.	.
2C/	-li-	-li-	2E/	-to-	-tho-	2G/	-tho-	-tho-	1c	-tho-	-tho-
=144-	=144-	=144-	=144-	=144-	=144-	=144-	=144-	=144-	=144-	=144-	=144-
1GG	-cam	-cam	1D	-li-	-li-	1G	-li-	-li-	.	.	.
!	!	!	!	!	!	!	!	!	!LO:SIC:s=2Bi	!	!
.	.	.	.	.	.	.	.	.	2B-/	-li-	-li-
2r	.	.	2C/	-cam	-cam	1G	-ca(m)	-cam	0c	-cam,	-cam
*custos:F	*	*	*	*	*	*	*	*	*	*	*
*	*	*	*	*Xij	*Xij	*	*	*	*	*	*
2C/	et	et	2G/	e(t)	et	.	.	.	.	.	.
!LO:LB:g=original	!	!	!	!	!	!	!	!	!	!	!
=145-	=145-	=145-	=145-	=145-	=145-	=145-	=145-	=145-	=145-	=145-	=145-
2F\	a-	a-	2.A/	A-	a-	0r	.	.	.	.	.
2F\	-po-	-po-	.	.	.	.	.	.	.	.	.
.	.	.	4A/	-po-	-po-	.	.	.	.	.	.
2F\	-ſto-	-ſto-	2A/	-sto-	-sto-	.	.	.	2r	.	.
*	*	*	*custos:F	*	*	*	*	*	*	*	*
2E\	-li-	-li-	2G/	-li-	-li-	.	.	.	2c/	et	et
!	!	!	!LO:LB:g=original	!	!	!	!	!	!	!	!
=146-	=146-	=146-	=146-	=146-	=146-	=146-	=146-	=146-	=146-	=146-	=146-
2.D\	-cam	-cam	2F/	-cam	-cam	2r	.	.	2f\	a-	a-
*	*	*	*	*	*	*	*	*	*custos:f	*	*
.	.	.	1A	Ec-	Ec-	2F/	et	et	2f\	-po-	-po-
4E\	.	.	.	.	.	.	.	.	.	.	.
!	!	!	!	!	!	!	!	!	!LO:LB:g=original	!	!
2F\	Ec-	Ec-	.	.	.	2c\	A-	a-	2f\	-ſto-	-ſto-
1C	-cle-	-cle-	1G	.	.	2c\	-po-	-po-	1e	-li-	.
=147-	=147-	=147-	=147-	=147-	=147-	=147-	=147-	=147-	=147-	=147-	=147-
.	.	.	.	.	.	2c\	-ſto-	-ſto-	.	.	.
*	*	*	*	*	*	*custos:A	*	*	*	*	*
2D/	-ſi-	.	1F	-cle-	-cle-	2B-\	-li-	-li-	2d\	-cam	-li-
!	!	!	!	!	!	!LO:LB:g=original	!	!	!	!	!
2AA/	-am	-si-	.	.	.	2A\	-cam	-cam	1c	ec-	-cam
*	*ij	*	*	*	*	*	*	*	*	*	*
2C/	Ec-	-am	2E/	.	.	2.G/	Ec-	Ec-	.	.	.
=148-	=148-	=148-	=148-	=148-	=148-	=148-	=148-	=148-	=148-	=148-	=148-
*	*	*ij	*	*	*	*	*	*	*	*	*
2BB-/	-cle-	Ec-	2D/	-ſi-	.	.	.	.	2G/	-cle-	Ec-
.	.	.	.	.	.	4F/	.	.	.	.	.
2AA/	.	-cle-	1C	.	.	1F	-cl(e-	-cle-	2A/	.	-cle-
1GG	-ſi-	-ſi-	.	.	.	.	.	.	1B-	-ſi-	-si-
.	.	.	2BB-/	.	-si-	2E/	-si)-	-si-	.	.	.
=149-	=149-	=149-	=149-	=149-	=149-	=149-	=149-	=149-	=149-	=149-	=149-
0FF	-am	-am.	0C	-am.	-am.	2F/	-am	-am	2A/	-am	-am.
.	.	.	.	.	.	2.A/	ec-	Ec-	1F	con-	Con-
.	.	.	.	.	.	4G/	-cle-	.	.	.	.
.	.	.	.	.	.	1c	-ſi-	-cle-	2F/	-fi-	-fi-
*	*Xij	*Xij	*	*	*	*	*	*	*	*	*
=150-	=150-	=150-	=150-	=150-	=150-	=150-	=150-	=150-	=150-	=150-	=150-
1r	.	.	1r	.	.	.	.	.	1G	-te-	-te-
.	.	.	.	.	.	2B-\	-am	-si-	.	.	.
2r	.	.	1.c	Con-	Con-	2c\	.	-am.	1F	-or.	-or
1F	Con-	Con-	.	.	.	1A	Con-	Con-	.	.	.
=151-	=151-	=151-	=151-	=151-	=151-	=151-	=151-	=151-	=151-	=151-	=151-
.	.	.	.	.	.	.	.	.	2r	.	.
2F\	-fi-	-fi-	2c\	-fi-	-fi-	2A\	-fi-	-fi-	1f	Con-	con-
4BB-/	-te-	-te-	1d	-te-	-te-	1B-	-te-	-te-	.	.	.
4C/	.	.	.	.	.	.	.	.	.	.	.
4D/	.	.	.	.	.	.	.	.	2f\	-fi-	-fi-
*custos:F	*	*	*	*	*	*	*	*	*	*	*
4E/	.	.	.	.	.	.	.	.	.	.	.
!LO:LB:g=original	!	!	!	!	!	!	!	!	!	!	!
=152-	=152-	=152-	=152-	=152-	=152-	=152-	=152-	=152-	=152-	=152-	=152-
1F	-or	-or	1c	-or	-or	2.A\	-or	.	1f	-te-	-te-
.	.	.	.	.	.	4G/	.	.	.	.	.
2r	.	.	1A	V-	u-	2F/	.	-or	2c/	-or	-or
2F\	v-	u-	.	.	.	2f\	V-	u-	2a\	v-	u-
=153-	=153-	=153-	=153-	=153-	=153-	=153-	=153-	=153-	=153-	=153-	=153-
2G\	-num	-num	2B-\	-num	-num	2d\	-num	-num	2g\	-num	-num
2A\	bap-	bap-	1c	bap-	bap-	2c\	bap-	bap-	2f\	bap-	bap-
1G	-tiſ-	-tiſ-	.	.	.	1d	-tiſ-	-tiſ-	1g	-tiſ-	-tiſ-
!	!	!	!LO:SIC:s=2Bi	!	!	!	!	!	!	!	!
.	.	.	2B-\	-tiſ-	-tiſ-	.	.	.	.	.	.
=154-	=154-	=154-	=154-	=154-	=154-	=154-	=154-	=154-	=154-	=154-	=154-
*	*	*	*custos:c	*	*	*	*	*	*	*	*
2C/	-ma	-ma	0c	-ma	-ma	2c\	-ma	-ma	2e\	-ma	-ma
*	*	*	*	*	*	*custos:A	*	*	*	*	*
*	*	*	*	*	*	*	*	*	*	*ij	*ij
1C	in	in	.	.	.	2G/	in	in	1e	v-	u-
!	!	!	!LO:LB:g=original	!	!	!LO:LB:g=original	!	!	!	!	!
.	.	.	.	.	.	2A/	re-	re-	.	.	.
2C/	re-	re-	.	.	.	2G/	-miſ-	-miſ-	2e\	-num	-num
=155-	=155-	=155-	=155-	=155-	=155-	=155-	=155-	=155-	=155-	=155-	=155-
1D	-miſ-	-miſ-	1r	.	.	4F/	-si-	-si-	4d\	bap-	bap-
.	.	.	.	.	.	4G/	.	.	4e\	.	.
.	.	.	.	.	.	4A/	-o-	.	4f\	.	.
*	*	*	*	*	*	*	*	*	*custos:e	*	*
.	.	.	.	.	.	4B-/	.	.	4d\	.	.
!	!	!	!	!	!	!	!	!	!LO:LB:g=original	!	!
1C	-si-	-si-	1.c	in	in	2c\	.	-o-	1e	-tiſ-	-tiſ-
.	.	.	.	.	.	2G/	.	.	.	.	.
=156-	=156-	=156-	=156-	=156-	=156-	=156-	=156-	=156-	=156-	=156-	=156-
2AA/	-o-	-o-	.	.	.	1A	.	.	2e\	-ma	-ma
*	*	*	*	*	*	*	*	*	*	*Xij	*Xij
2FF/	-(ne)m	-nem	2c\	re-	re-	.	.	.	2f\	in	in
4BB-/	pec-	pec-	1d	-miſ-	-miſ-	1B-	.	.	2f\	re-	re-
4C/	.	.	.	.	.	.	.	.	.	.	.
4D/	.	.	.	.	.	.	.	.	1f	-miſ-	-miſ-
4E/	.	.	.	.	.	.	.	.	.	.	.
=157-	=157-	=157-	=157-	=157-	=157-	=157-	=157-	=157-	=157-	=157-	=157-
2F\	-ca-	-ca-	2.c\	-si-	-si-	2A/	-nem	.	.	.	.
2C/	-to-	-to-	.	.	.	2G/	pec-	-nem	2e\	-si-	-si-
.	.	.	4B-\	-o-	-o-	.	.	.	.	.	.
2D\	-r(um)	-rum	2A/	-nem	-nem	2F/	.	pec-	2d\	-o-	-o-
*	*ij	*ij	*	*	*	*	*	*	*	*	*
2E\	pec-	pec-	2.G/	pec-	pec-	2G/	.	.	1c	-nem	-nem
=158-	=158-	=158-	=158-	=158-	=158-	=158-	=158-	=158-	=158-	=158-	=158-
2F\	-ca-	-ca-	.	.	.	2A/	-ca-	-ca-	.	.	.
.	.	.	4F/	-(ca)-	.	.	.	.	.	.	.
*custos:C	*	*	*	*	*	*	*	*	*	*	*
2BB-/	-to-	-to-	1F	-to-	-ca-	2B-/	-to-	-to-	2d\	.	pec-
!LO:LB:g=original	!	!	!	!	!	!	!	!	!	!	!
1C	-r(um)	-rum	.	.	.	1G	-ru(m)	-rum	2c/	pec-	-ca-
.	.	.	2E/	-rum	-to-	.	.	.	2c/	-c(a)-	-to-
*	*Xij	*Xij	*	*	*	*	*	*	*	*	*
=159-	=159-	=159-	=159-	=159-	=159-	=159-	=159-	=159-	=159-	=159-	=159-
2r	.	.	2F/	.	-rum	2r	.	.	2c/	-to-	-rum
*	*	*	*	*	*	*	*	*	*	*	*ij
1BB-	in	in	2F/	in	in	1B-	in	in	1d	-rum	in
.	.	.	2F/	re-	re-	.	.	.	.	.	.
*	*	*	*	*	*	*	*	*	*	*ij	*
2BB-/	re-	re-	2F/	-miſ-	-miſ-	2B-\	re-	re-	2d/	re-	re-
=160-	=160-	=160-	=160-	=160-	=160-	=160-	=160-	=160-	=160-	=160-	=160-
2BB-/	-mis-	-mis-	2D/	-ſi-	-ſi-	2d\	-miſ-	-miſ-	2B-/	-miſ-	-miſ-
2BB-/	-ſi-	-ſi-	2D/	-o-	-o-	2d\	-Si-	-si-	2B-/	-si-	-si-
2C/	-o-	-o-	2E/	-nem	-nem	2c\	-o-	-o-	2G/	-o-	-o-
2D/	-nem	-nem	2.F/	pec-	pec-	2A\	-nem	-nem	2d\	-nem	-nem
=161-	=161-	=161-	=161-	=161-	=161-	=161-	=161-	=161-	=161-	=161-	=161-
2BB-/	pec-	pec-	.	.	.	2B-\	pec-	pec-	2d\	pec-	pec-
.	.	.	4E/	.	.	.	.	.	.	.	.
2C/	-ca-	-ca-	4D/	.	-ca-	2G/	-ca-	-ca-	1c	-c(a)-	-ca-
.	.	.	4C/	-ca-	.	.	.	.	.	.	.
*	*	*	*custos:C	*	*	*	*	*	*	*	*
1GG	-to-	-to-	1D	-to-	-to-	1G	-to-	-to-	.	.	.
!	!	!	!	!	!	!	!	!	!LO:SIC:s=2Bi	!	!
.	.	.	.	.	.	.	.	.	2B-/	-to-	-to-
!	!	!	!LO:LB:g=original	!	!	!	!	!	!	!	!
=162-	=162-	=162-	=162-	=162-	=162-	=162-	=162-	=162-	=162-	=162-	=162-
2C/	-rum	-rum.	2C/	-rum.	-rum.	2E/	-r(um)	-rum.	2c/	-rum	-rum.
*	*	*	*	*	*	*	*	*	*	*Xij	*Xij
1FF	e(t)	Et	1F	et	Et	1C	et	Et	1A	et	Et
*	*	*	*	*	*	*	*	*	*custos:c	*	*
2FF/	ex-	ex-	2F/	ex-	ex-	2C/	ex-	ex-	2A/	ex-	ex-
!	!	!	!	!	!	!	!	!	!LO:LB:g=original	!	!
=163-	=163-	=163-	=163-	=163-	=163-	=163-	=163-	=163-	=163-	=163-	=163-
1C	-pe-	-spe-	1G	-pe-	-spe-	1E	-pec-	-spec-	1c	-pec-	-spec-
2FF/	-cto	-cto	2A/	-cto	-cto	2F/	-to	-to	2c/	-to	-to
2F\	re-	re-	2A/	re-	re-	1F	re-	re-	2c/	re-	re-
=164-	=164-	=164-	=164-	=164-	=164-	=164-	=164-	=164-	=164-	=164-	=164-
2BB-/	-ſur-	-ſur-	1B-	-ſur-	-ſur-	.	.	.	2d\	-ſur-	-ſur-
!LO:SIC:s=1E-	!	!	!	!	!	!	!	!	!	!	!
1E	-rec-	-rec-	.	.	.	2G/	-ſur-	-ſur-	2B-/	-rec-	-rec-
.	.	.	2G/	-re-	-rec-	2G/	-rec-	-rec-	2B-/	-ti-	-ti-
!	!	!	!	!	!	!LO:SIC:s=2E-i	!	!	!	!	!
2C/	-ti-	-ti-	2G/	-cti-	-ti-	2E/	-ti-	-ti-	2c/	-o-	-o-
=165-	=165-	=165-	=165-	=165-	=165-	=165-	=165-	=165-	=165-	=165-	=165-
*custos:C	*	*	*	*	*	*	*	*	*	*	*
1F	-o-	-o-	1A	-o-	-o-	4F/	-o-	-o-	2c/	-nem	-nem
.	.	.	.	.	.	4G/	.	.	.	.	.
.	.	.	.	.	.	4A\	.	.	2f\	mor-	mor-
.	.	.	.	.	.	4B-\	-nem	.	.	.	.
!LO:LB:g=original	!	!	!	!	!	!	!	!	!	!	!
2C/	-nem	-nem	2G/	-nem	-nem	2c\	.	-nem	2e\	-tu-	-tu-
2D/	mor-	mor-	1F	mor-	mor-	2A\	mor-	mor-	2.d\	-o-	-o-
=166-	=166-	=166-	=166-	=166-	=166-	=166-	=166-	=166-	=166-	=166-	=166-
2BB-/	-tu-	-tu-	.	.	.	2B-\	-tu-	-tu-	.	.	.
.	.	.	.	.	.	.	.	.	4c/	.	.
2C/	-o-	-o-	2E/	-tu-	-tu-	2G/	-o-	-o-	1c	-rum	.
1GG	-ru(m)	-rum.	1D	-o-	-o-	2G/	-ru(m)	-rum.	.	.	.
!	!	!	!	!	!	!	!	!	!LO:SIC:s=2Bi	!	!
.	.	.	.	.	.	2G/	et	Et	2B-/	.	.
=167-	=167-	=167-	=167-	=167-	=167-	=167-	=167-	=167-	=167-	=167-	=167-
2r	.	.	0C	-r(um)	-rum.	2E/	vi-	vi-	1c	.	-rum.
*	*	*	*	*	*	*custos:E	*	*	*	*	*
2C/	et	Et	.	.	.	2C/	-ta(m)	-tam	.	.	.
!	!	!	!	!	!	!LO:LB:g=original	!	!	!	!	!
2AA/	vi-	vi-	.	.	.	2E/	ven-	ven-	2r	.	.
2FF/	-tam	-tam	.	.	.	1F	-tu-	-tu-	2c/	et	Et
=168-	=168-	=168-	=168-	=168-	=168-	=168-	=168-	=168-	=168-	=168-	=168-
1BB-	Ven-	ven-	1D	et	Et	.	.	.	1B-	vi-	vi-
.	.	.	.	.	.	2F/	-ri	-ri	.	.	.
2BB-/	-tu-	-tu-	1C	vi-	vi-	2E/	ſe-	sae-	2G/	-tam	-tam
2AA/	-ri	-ri	.	.	.	2F/	-cu-	-cu-	2A/	.	.
=169-	=169-	=169-	=169-	=169-	=169-	=169-	=169-	=169-	=169-	=169-	=169-
1GG	ſe-	sae-	2D/	-tam	-tam	1G	-li	-li	1B-	ven-	ven-
*	*	*	*custos:E	*	*	*	*	*	*	*	*
.	.	.	2D/	ven-	ven-	.	.	.	.	.	.
*lig	*	*	*	*	*	*	*	*	*	*	*
!	!	!	!LO:LB:g=original	!	!	!	!	!	!	!	!
1C	-cu-	-cu-	2E/	-tu-	-tu-	2.G/	ſe-	sae-	2c/	-tu-	-tu-
.	.	.	2E/	-ri	-ri	.	.	.	2c/	-ri	-ri
.	.	.	.	.	.	4A/	-cu-	.	.	.	.
=170-	=170-	=170-	=170-	=170-	=170-	=170-	=170-	=170-	=170-	=170-	=170-
1BB-	.	.	1F	ſe-	sae-	1B-	-li	-cu-	2.d\	ſe-	sae-
.	.	.	.	.	.	.	.	.	4c/	-cu-	.
*Xlig	*	*	*	*	*	*	*	*	*	*	*
1D	-li	-li.	2F/	-cu-	-cu-	1A	.	-li.	4d\	-li	-cu-
.	.	.	.	.	.	.	.	.	4e\	.	.
.	.	.	2F/	-li	-li.	.	.	.	1f	.	.
=171-	=171-	=171-	=171-	=171-	=171-	=171-	=171-	=171-	=171-	=171-	=171-
0C	A-	A-	0G	A-	A-	0c	A-	A-	.	.	.
.	.	.	.	.	.	.	.	.	4e\	.	.
*	*	*	*	*	*	*	*	*	*custos:e	*	*
.	.	.	.	.	.	.	.	.	4d\	.	.
!	!	!	!	!	!	!	!	!	!LO:LB:g=original	!	!
.	.	.	.	.	.	.	.	.	1e	A-	-li.
=172-	=172-	=172-	=172-	=172-	=172-	=172-	=172-	=172-	=172-	=172-	=172-
!	!	!	!LO:SIC:s=[0F	!	!	!	!	!	!	!	!
1FF	-men	-men.	[0Fl;	-MEN	-men.	1A	-men.	.	2.f\	.	A-
.	.	.	.	.	.	.	.	.	4e\	-men	.
0BB-	A-	A-	.	.	.	2.B-\	.	.	4d\	.	.
.	.	.	.	.	.	.	.	.	4c\	.	.
.	.	.	.	.	.	.	.	.	2.d\	.	.
.	.	.	.	.	.	4A/	.	.	.	.	.
=173-	=173-	=173-	=173-	=173-	=173-	=173-	=173-	=173-	=173-	=173-	=173-
.	.	.	0F_	.	.	2F/	.	.	.	.	.
.	.	.	.	.	.	.	.	.	4c/	.	.
.	.	.	.	.	.	1B-	.	.	2d\	.	.
!LO:SIC:s=[1FF	!	!	!	!	!	!	!	!	!	!	!
[1FFl;	-men.	-men.	.	.	.	.	.	.	[1cl	.	-men.
.	.	.	.	.	.	4A/	.	.	.	.	.
.	.	.	.	.	.	4G/	.	.	.	.	.
=174-	=174-	=174-	=174-	=174-	=174-	=174-	=174-	=174-	=174-	=174-	=174-
!LO:SIC:s=0FF;]	!	!	!LO:SIC:s=0F;]	!	!	!	!	!	!LO:SIC:s=0c;]	!	!
0FF]	.	.	0F]	.	.	0A;<l	.	-men.	0c]	.	.
==	==	==	==	==	==	==	==	==	==	==	==
*-	*-	*-	*-	*-	*-	*-	*-	*-	*-	*-	*-
!!!system-decoration: [(*)]
!!LO:MO:ori
!!!RDF**kern: l = terminal long
!!!RDF**kern: < = below
!!LO:MO:mod
!! !!!RDF**kern: i = editorial accidental
!!LO:MO:end
!!!filter-modern: shed -e "s/TX(.*):t=P:/tx$1:t=P:/LG" | sic -sq | modori -m | autostem -r | tie -s | humtr -p | shed -e "s/-//B" | shed -e "s/^custos:/Xcustos:/I"
!!!ENC: Mateusz Solarz
!!!END: 2022-03-09
!!!ENC: Natalia Wrzos
!!!END: 2022-03-14
!!!ENC-modern: Andrzej Kubiczek
!!!END-modern: 2022-07-20
